(.../guest/eagle/pcb-gcode/pcb-gcode.ulp)
(Copyright 2005 - 2012 by John Johnson)
(See readme.txt for licensing terms.)
(This file generated from the board:)
(.../ESPSensorBoard/ESPSensorBoard.brd)
(Current profile is .../eagle/pcb-gcode/profiles/emc.pp  )
(This file generated 09.04.17 18:13)
(Settings from pcb-machine.h)
(  Tool Size)
(0.1778 )
(Z Axis Settings)
(  High     Up        Down     Drill)
(12.7000 	2.5400 	-0.1778 	-2.0000 )
(spindle on time = 3.0000)
(milling depth = -6.4516)
(text depth = -3.2258)
(tool change at 12.7000 15.2400 25.4000 )
(feed rate xy = F508.00 )
(feed rate z  = F254.00 )
(Settings from pcb-defaults.h)
(isolate min = 0.0254)
(isolate max = 0.5080)
(isolate step = 0.1270)
(Generated bottom outlines, bottom drill, )
(Unit of measure: mm)
(Metric Mode)
G21
(Absolute Coordinates)
G90
G00 X0.0000 Y0.0000 
M03
G04 P3.000000
G00 Z2.5400 
G00 X-39.2928 Y8.4527 
G01 Z-0.1778 F254.00 
G01 X-39.2928 Y8.4527 F508.00 
G01 X-39.3754 Y8.6977 
G01 X-39.4252 Y8.9514 
G01 X-39.4416 Y9.2095 
G01 X-39.4241 Y9.4674 
G01 X-39.3731 Y9.7209 
G01 X-39.2894 Y9.9655 
G01 X-39.1745 Y10.1971 
G01 X-39.0304 Y10.4118 
G01 X-38.8595 Y10.6058 
G01 X-38.6647 Y10.7758 
G01 X-38.5571 Y10.8474 
G01 X-38.4894 Y10.8924 
G01 X-38.4448 Y10.9108 
G01 X-38.4209 Y10.9347 
G01 X-38.3867 Y10.9347 
G01 X-38.3390 Y10.9543 
G01 X-38.1794 Y10.9857 
G01 X-38.0168 Y10.9853 
G01 X-37.8574 Y10.9532 
G01 X-37.8130 Y10.9347 
G01 X-37.7791 Y10.9347 
G01 X-37.7549 Y10.9105 
G01 X-37.7073 Y10.8907 
G01 X-37.5723 Y10.8000 
G01 X-37.4576 Y10.6848 
G01 X-37.3676 Y10.5494 
G01 X-37.3492 Y10.5048 
G01 X-37.3253 Y10.4809 
G01 X-37.3253 Y10.4467 
G01 X-37.3057 Y10.3990 
G01 X-37.2743 Y10.2394 
G01 X-37.2747 Y10.0768 
G01 X-37.3068 Y9.9174 
G01 X-37.3253 Y9.8730 
G01 X-37.3253 Y9.8391 
G01 X-37.3495 Y9.8149 
G01 X-37.3693 Y9.7673 
G01 X-37.4600 Y9.6323 
G01 X-37.5752 Y9.5176 
G01 X-37.6429 Y9.4726 
G01 X-37.6600 Y9.4604 
G01 X-37.6917 Y9.4327 
G01 X-37.7195 Y9.4012 
G01 X-37.7429 Y9.3663 
G01 X-37.7616 Y9.3286 
G01 X-37.7752 Y9.2889 
G01 X-37.7835 Y9.2477 
G01 X-37.7863 Y9.2057 
G01 X-37.7837 Y9.1638 
G01 X-37.7756 Y9.1225 
G01 X-37.7622 Y9.0827 
G01 X-37.7437 Y9.0450 
G01 X-37.7326 Y9.0271 
G01 X-37.6885 Y8.9610 
G01 X-37.6572 Y8.8856 
G01 X-37.6262 Y8.8108 
G01 X-37.6102 Y8.7303 
G01 X-37.5945 Y8.6513 
G01 X-37.5945 Y8.5691 
G01 X-37.5945 Y7.9315 
G01 X-37.5615 Y8.0110 
G01 X-37.4712 Y8.1462 
G01 X-37.4305 Y8.1869 
G01 X-37.3979 Y8.2201 
G01 X-37.3562 Y8.2612 
G01 X-37.2210 Y8.3515 
G01 X-37.0708 Y8.4138 
G01 X-36.9113 Y8.4455 
G01 X-35.4787 Y8.4455 
G01 X-35.3192 Y8.4138 
G01 X-35.1690 Y8.3515 
G01 X-35.0338 Y8.2612 
G01 X-34.9188 Y8.1462 
G01 X-34.8285 Y8.0110 
G01 X-34.7662 Y7.8608 
G01 X-34.7345 Y7.7013 
G01 X-34.7345 Y7.6200 
G01 X-34.7335 Y7.5909 
G01 X-34.7260 Y7.5333 
G01 X-34.7109 Y7.4771 
G01 X-34.6887 Y7.4234 
G01 X-34.6596 Y7.3730 
G01 X-34.6242 Y7.3269 
G01 X-34.5831 Y7.2858 
G01 X-34.5370 Y7.2504 
G01 X-34.4866 Y7.2213 
G01 X-34.4329 Y7.1991 
G01 X-34.3767 Y7.1840 
G01 X-34.3191 Y7.1764 
G01 X-34.2900 Y7.1755 
G01 X-34.1249 Y7.1755 
G01 X-34.1249 Y7.4276 
G01 X-34.0977 Y7.5993 
G01 X-34.0439 Y7.7647 
G01 X-33.9650 Y7.9197 
G01 X-33.8628 Y8.0604 
G01 X-33.7398 Y8.1834 
G01 X-33.5991 Y8.2856 
G01 X-33.4441 Y8.3645 
G01 X-33.2787 Y8.4183 
G01 X-33.1070 Y8.4455 
G01 X-32.9330 Y8.4455 
G01 X-32.7613 Y8.4183 
G01 X-32.5959 Y8.3645 
G01 X-32.4409 Y8.2856 
G01 X-32.3002 Y8.1834 
G01 X-32.1772 Y8.0604 
G01 X-32.0750 Y7.9197 
G01 X-31.9961 Y7.7647 
G01 X-31.9423 Y7.5993 
G01 X-31.9151 Y7.4276 
G01 X-31.9151 Y5.2724 
G01 X-31.9423 Y5.1007 
G01 X-31.9961 Y4.9353 
G01 X-32.0750 Y4.7803 
G01 X-32.1772 Y4.6396 
G01 X-32.3002 Y4.5166 
G01 X-32.4409 Y4.4144 
G01 X-32.5959 Y4.3354 
G01 X-32.7613 Y4.2817 
G01 X-32.9330 Y4.2545 
G01 X-33.1070 Y4.2545 
G01 X-33.2787 Y4.2817 
G01 X-33.4441 Y4.3354 
G01 X-33.5991 Y4.4144 
G01 X-33.7398 Y4.5166 
G01 X-33.8628 Y4.6396 
G01 X-33.9650 Y4.7803 
G01 X-34.0439 Y4.9353 
G01 X-34.0977 Y5.1007 
G01 X-34.1249 Y5.2724 
G01 X-34.1249 Y5.5245 
G01 X-34.4273 Y5.5245 
G01 X-34.6997 Y5.5604 
G01 X-34.9650 Y5.6315 
G01 X-35.2188 Y5.7366 
G01 X-35.4567 Y5.8739 
G01 X-35.6746 Y6.0411 
G01 X-35.8689 Y6.2354 
G01 X-36.0361 Y6.4533 
G01 X-36.1734 Y6.6912 
G01 X-36.2162 Y6.7945 
G01 X-36.9113 Y6.7945 
G01 X-37.0708 Y6.8262 
G01 X-37.2210 Y6.8885 
G01 X-37.3562 Y6.9788 
G01 X-37.3969 Y7.0195 
G01 X-37.4301 Y7.0521 
G01 X-37.4712 Y7.0938 
G01 X-37.5615 Y7.2290 
G01 X-37.5945 Y7.3085 
G01 X-37.5945 Y4.9987 
G01 X-37.6262 Y4.8392 
G01 X-37.6557 Y4.7680 
G01 X-37.6557 Y4.3073 
G01 X-37.6731 Y4.2653 
G01 X-37.7053 Y4.2331 
G01 X-37.7473 Y4.2157 
G01 X-39.0927 Y4.2157 
G01 X-39.1347 Y4.2331 
G01 X-39.1669 Y4.2653 
G01 X-39.1843 Y4.3073 
G01 X-39.1843 Y4.7680 
G01 X-39.2138 Y4.8392 
G01 X-39.2455 Y4.9987 
G01 X-39.2455 Y8.3562 
G01 X-39.2928 Y8.4527 
G00 Z2.5400 
G00 X-43.7801 Y32.3179 
G01 Z-0.1778 F254.00 
G01 X-43.7479 Y32.3501 F508.00 
G01 X-43.7469 Y32.3505 
G01 X-43.7062 Y32.3912 
G01 X-43.5710 Y32.4815 
G01 X-43.4208 Y32.5438 
G01 X-43.2613 Y32.5755 
G01 X-38.9255 Y32.5755 
G01 X-38.9255 Y33.4257 
G01 X-39.0927 Y33.4257 
G01 X-39.1347 Y33.4431 
G01 X-39.1669 Y33.4753 
G01 X-39.1843 Y33.5173 
G01 X-39.1843 Y33.9780 
G01 X-39.2138 Y34.0492 
G01 X-39.2455 Y34.2087 
G01 X-39.2455 Y34.3713 
G01 X-39.2138 Y34.5308 
G01 X-39.1843 Y34.6020 
G01 X-39.1843 Y35.0627 
G01 X-39.1669 Y35.1047 
G01 X-39.1347 Y35.1369 
G01 X-39.0927 Y35.1543 
G01 X-37.7473 Y35.1543 
G01 X-37.7053 Y35.1369 
G01 X-37.6731 Y35.1047 
G01 X-37.6557 Y35.0627 
G01 X-37.6557 Y34.9859 
G01 X-37.5738 Y34.9312 
G01 X-37.4588 Y34.8162 
G01 X-37.3685 Y34.6810 
G01 X-37.3062 Y34.5308 
G01 X-37.2745 Y34.3713 
G01 X-37.2745 Y31.6687 
G01 X-37.3062 Y31.5092 
G01 X-37.3253 Y31.4632 
G01 X-37.3253 Y31.4291 
G01 X-37.3494 Y31.4050 
G01 X-37.3685 Y31.3590 
G01 X-37.4588 Y31.2238 
G01 X-37.5738 Y31.1088 
G01 X-37.7090 Y31.0185 
G01 X-37.7550 Y30.9994 
G01 X-37.7791 Y30.9753 
G01 X-37.8132 Y30.9753 
G01 X-37.8592 Y30.9562 
G01 X-38.0187 Y30.9245 
G01 X-43.2613 Y30.9245 
G01 X-43.4208 Y30.9562 
G01 X-43.5710 Y31.0185 
G01 X-43.7062 Y31.1088 
G01 X-43.7469 Y31.1495 
G01 X-43.7801 Y31.1821 
G01 X-43.8212 Y31.2238 
G01 X-43.9115 Y31.3590 
G01 X-43.9738 Y31.5092 
G01 X-44.0055 Y31.6687 
G01 X-44.0055 Y31.8313 
G01 X-43.9738 Y31.9908 
G01 X-43.9115 Y32.1410 
G01 X-43.8212 Y32.2762 
G01 X-43.7805 Y32.3169 
G00 Z2.5400 
G00 X-64.1699 Y52.7721 
G01 Z-0.1778 F254.00 
G01 X-64.2021 Y52.7399 F508.00 
G01 X-64.2031 Y52.7395 
G01 X-64.2438 Y52.6988 
G01 X-64.3790 Y52.6085 
G01 X-64.5292 Y52.5462 
G01 X-64.6887 Y52.5145 
G01 X-64.8513 Y52.5145 
G01 X-65.0108 Y52.5462 
G01 X-65.1610 Y52.6085 
G01 X-65.2962 Y52.6988 
G01 X-65.3369 Y52.7395 
G01 X-65.3701 Y52.7721 
G01 X-65.4112 Y52.8138 
G01 X-65.5015 Y52.9490 
G01 X-65.5638 Y53.0992 
G01 X-65.5955 Y53.2587 
G01 X-65.5955 Y73.8364 
G01 X-65.5586 Y74.1872 
G01 X-65.4853 Y74.5322 
G01 X-65.3763 Y74.8677 
G01 X-65.2328 Y75.1900 
G01 X-65.0564 Y75.4955 
G01 X-64.8491 Y75.7809 
G01 X-64.6130 Y76.0430 
G01 X-64.3509 Y76.2791 
G01 X-64.0655 Y76.4864 
G01 X-63.7600 Y76.6628 
G01 X-63.4377 Y76.8063 
G01 X-63.1023 Y76.9153 
G01 X-62.7572 Y76.9886 
G01 X-62.4064 Y77.0255 
G01 X-59.5265 Y77.0255 
G01 X-59.2014 Y76.9907 
G01 X-58.8817 Y76.9215 
G01 X-58.5713 Y76.8188 
G01 X-58.2736 Y76.6836 
G01 X-57.9919 Y76.5175 
G01 X-57.7295 Y76.3223 
G01 X-57.4893 Y76.1004 
G01 X-57.2741 Y75.8542 
G01 X-57.0863 Y75.5865 
G01 X-56.9281 Y75.3003 
G01 X-56.8012 Y74.9990 
G01 X-56.7071 Y74.6858 
G01 X-56.6468 Y74.3644 
G01 X-56.6210 Y74.0384 
G01 X-56.6300 Y73.7115 
G01 X-56.6519 Y73.5495 
G01 X-56.6628 Y73.4689 
G01 X-56.7057 Y73.3440 
G01 X-56.7057 Y72.8873 
G01 X-56.7231 Y72.8453 
G01 X-56.7553 Y72.8131 
G01 X-56.7973 Y72.7957 
G01 X-58.1427 Y72.7957 
G01 X-58.1847 Y72.8131 
G01 X-58.2169 Y72.8453 
G01 X-58.2343 Y72.8873 
G01 X-58.2343 Y73.3438 
G01 X-58.2473 Y73.3704 
G01 X-58.2889 Y73.5276 
G01 X-58.2990 Y73.6899 
G01 X-58.2881 Y73.7705 
G01 X-58.2800 Y73.8454 
G01 X-58.2758 Y73.9960 
G01 X-58.2877 Y74.1463 
G01 X-58.3155 Y74.2944 
G01 X-58.3588 Y74.4387 
G01 X-58.4173 Y74.5775 
G01 X-58.4902 Y74.7094 
G01 X-58.5768 Y74.8328 
G01 X-58.6759 Y74.9462 
G01 X-58.7866 Y75.0485 
G01 X-58.9075 Y75.1384 
G01 X-59.0373 Y75.2149 
G01 X-59.1745 Y75.2772 
G01 X-59.3176 Y75.3246 
G01 X-59.4648 Y75.3565 
G01 X-59.6147 Y75.3725 
G01 X-59.6900 Y75.3745 
G01 X-62.2300 Y75.3745 
G01 X-62.3197 Y75.3722 
G01 X-62.4982 Y75.3534 
G01 X-62.6737 Y75.3161 
G01 X-62.8444 Y75.2606 
G01 X-63.0084 Y75.1876 
G01 X-63.1638 Y75.0979 
G01 X-63.3090 Y74.9924 
G01 X-63.4423 Y74.8723 
G01 X-63.5624 Y74.7390 
G01 X-63.6679 Y74.5938 
G01 X-63.7576 Y74.4384 
G01 X-63.8306 Y74.2744 
G01 X-63.8861 Y74.1037 
G01 X-63.9234 Y73.9282 
G01 X-63.9422 Y73.7497 
G01 X-63.9445 Y73.6600 
G01 X-63.9445 Y53.2587 
G01 X-63.9762 Y53.0992 
G01 X-64.0384 Y52.9490 
G01 X-64.1288 Y52.8138 
G01 X-64.1695 Y52.7731 
G00 Z2.5400 
G00 X-72.5757 Y64.2727 
G01 Z-0.1778 F254.00 
G01 X-72.5757 Y63.8120 F508.00 
G01 X-72.5462 Y63.7408 
G01 X-72.5145 Y63.5813 
G01 X-72.5145 Y63.4187 
G01 X-72.5462 Y63.2592 
G01 X-72.5757 Y63.1880 
G01 X-72.5757 Y62.7273 
G01 X-72.5931 Y62.6853 
G01 X-72.6253 Y62.6531 
G01 X-72.6673 Y62.6357 
G01 X-74.0127 Y62.6357 
G01 X-74.0547 Y62.6531 
G01 X-74.0761 Y62.6745 
G01 X-79.0549 Y62.6745 
G01 X-79.0772 Y62.6437 
G01 X-79.2235 Y62.4974 
G01 X-79.3909 Y62.3758 
G01 X-79.5753 Y62.2819 
G01 X-79.7720 Y62.2179 
G01 X-79.9764 Y62.1856 
G01 X-82.5836 Y62.1856 
G01 X-82.7880 Y62.2179 
G01 X-82.9847 Y62.2819 
G01 X-83.1691 Y62.3758 
G01 X-83.3365 Y62.4974 
G01 X-83.4828 Y62.6437 
G01 X-83.6044 Y62.8111 
G01 X-83.6983 Y62.9954 
G01 X-83.7622 Y63.1922 
G01 X-83.7946 Y63.3965 
G01 X-83.7946 Y63.6035 
G01 X-83.7622 Y63.8078 
G01 X-83.6983 Y64.0046 
G01 X-83.6044 Y64.1889 
G01 X-83.4828 Y64.3563 
G01 X-83.3365 Y64.5026 
G01 X-83.1691 Y64.6242 
G01 X-82.9847 Y64.7181 
G01 X-82.7880 Y64.7821 
G01 X-82.5836 Y64.8144 
G01 X-79.9764 Y64.8144 
G01 X-79.7720 Y64.7821 
G01 X-79.5753 Y64.7181 
G01 X-79.3909 Y64.6242 
G01 X-79.2235 Y64.5026 
G01 X-79.0772 Y64.3563 
G01 X-79.0549 Y64.3255 
G01 X-74.0761 Y64.3255 
G01 X-74.0547 Y64.3469 
G01 X-74.0127 Y64.3643 
G01 X-72.6673 Y64.3643 
G01 X-72.6253 Y64.3469 
G01 X-72.5931 Y64.3147 
G01 X-72.5757 Y64.2727 
G00 Z2.5400 
G00 X-55.1045 Y31.6738 
G01 Z-0.1778 F254.00 
G01 X-54.1155 Y31.6738 F508.00 
G01 X-53.4162 Y30.9745 
G01 X-53.4162 Y29.9855 
G01 X-54.1155 Y29.2862 
G01 X-55.1045 Y29.2862 
G01 X-55.4728 Y29.6545 
G01 X-57.3611 Y29.6545 
G01 X-57.4024 Y29.6374 
G01 X-57.5717 Y29.6037 
G01 X-59.2683 Y29.6037 
G01 X-59.4376 Y29.6374 
G01 X-59.5971 Y29.7034 
G01 X-59.7406 Y29.7993 
G01 X-59.8627 Y29.9214 
G01 X-59.9586 Y30.0649 
G01 X-60.0246 Y30.2244 
G01 X-60.0583 Y30.3937 
G01 X-60.0583 Y30.5663 
G01 X-60.0246 Y30.7356 
G01 X-59.9586 Y30.8951 
G01 X-59.8627 Y31.0386 
G01 X-59.7406 Y31.1607 
G01 X-59.5971 Y31.2566 
G01 X-59.4376 Y31.3226 
G01 X-59.2683 Y31.3563 
G01 X-57.5717 Y31.3563 
G01 X-57.4024 Y31.3226 
G01 X-57.3611 Y31.3055 
G01 X-55.4728 Y31.3055 
G01 X-55.1045 Y31.6738 
G00 Z2.5400 
G00 X-95.7445 Y58.3438 
G01 Z-0.1778 F254.00 
G01 X-94.7555 Y58.3438 F508.00 
G01 X-94.0562 Y57.6445 
G01 X-94.0562 Y56.6555 
G01 X-94.7555 Y55.9562 
G01 X-95.7445 Y55.9562 
G01 X-95.9575 Y56.1692 
G01 X-96.0284 Y56.1376 
G01 X-96.1838 Y56.0479 
G01 X-96.3290 Y55.9424 
G01 X-96.4623 Y55.8223 
G01 X-96.5824 Y55.6890 
G01 X-96.6879 Y55.5438 
G01 X-96.7776 Y55.3884 
G01 X-96.8506 Y55.2244 
G01 X-96.9061 Y55.0537 
G01 X-96.9434 Y54.8782 
G01 X-96.9622 Y54.6997 
G01 X-96.9645 Y54.6100 
G01 X-96.9645 Y39.3700 
G01 X-96.9617 Y39.2398 
G01 X-96.9390 Y38.9804 
G01 X-96.8938 Y38.7240 
G01 X-96.8264 Y38.4725 
G01 X-96.7373 Y38.2279 
G01 X-96.6273 Y37.9919 
G01 X-96.4971 Y37.7664 
G01 X-96.3478 Y37.5532 
G01 X-96.1804 Y37.3537 
G01 X-95.9963 Y37.1696 
G01 X-95.7968 Y37.0022 
G01 X-95.5836 Y36.8529 
G01 X-95.3581 Y36.7227 
G01 X-95.1221 Y36.6127 
G01 X-94.8775 Y36.5236 
G01 X-94.6260 Y36.4562 
G01 X-94.3696 Y36.4110 
G01 X-94.1102 Y36.3883 
G01 X-93.9800 Y36.3855 
G01 X-91.3587 Y36.3855 
G01 X-91.1992 Y36.3538 
G01 X-91.0490 Y36.2915 
G01 X-90.9138 Y36.2012 
G01 X-90.7988 Y36.0862 
G01 X-86.0181 Y31.3055 
G01 X-82.3389 Y31.3055 
G01 X-82.2976 Y31.3226 
G01 X-82.1283 Y31.3563 
G01 X-80.4317 Y31.3563 
G01 X-80.2624 Y31.3226 
G01 X-80.1029 Y31.2566 
G01 X-79.9594 Y31.1607 
G01 X-79.8373 Y31.0386 
G01 X-79.7414 Y30.8951 
G01 X-79.6754 Y30.7356 
G01 X-79.6417 Y30.5663 
G01 X-79.6417 Y30.3937 
G01 X-79.6754 Y30.2244 
G01 X-79.7414 Y30.0649 
G01 X-79.8373 Y29.9214 
G01 X-79.9594 Y29.7993 
G01 X-80.1029 Y29.7034 
G01 X-80.2624 Y29.6374 
G01 X-80.4317 Y29.6037 
G01 X-82.1283 Y29.6037 
G01 X-82.2976 Y29.6374 
G01 X-82.3389 Y29.6545 
G01 X-86.4413 Y29.6545 
G01 X-86.6008 Y29.6862 
G01 X-86.7510 Y29.7485 
G01 X-86.8862 Y29.8388 
G01 X-91.7819 Y34.7345 
G01 X-94.1824 Y34.7345 
G01 X-94.5856 Y34.7698 
G01 X-94.9843 Y34.8401 
G01 X-95.3752 Y34.9448 
G01 X-95.7556 Y35.0833 
G01 X-96.1225 Y35.2543 
G01 X-96.4730 Y35.4567 
G01 X-96.8046 Y35.6889 
G01 X-97.1147 Y35.9491 
G01 X-97.4009 Y36.2353 
G01 X-97.6611 Y36.5454 
G01 X-97.8933 Y36.8770 
G01 X-98.0957 Y37.2275 
G01 X-98.2667 Y37.5944 
G01 X-98.4052 Y37.9747 
G01 X-98.5099 Y38.3657 
G01 X-98.5802 Y38.7644 
G01 X-98.6155 Y39.1676 
G01 X-98.6155 Y54.7864 
G01 X-98.5786 Y55.1372 
G01 X-98.5053 Y55.4822 
G01 X-98.3963 Y55.8177 
G01 X-98.2528 Y56.1400 
G01 X-98.0764 Y56.4455 
G01 X-97.8691 Y56.7309 
G01 X-97.6330 Y56.9930 
G01 X-97.3709 Y57.2291 
G01 X-97.0855 Y57.4364 
G01 X-96.7800 Y57.6128 
G01 X-96.4577 Y57.7563 
G01 X-96.2715 Y57.8168 
G01 X-95.7445 Y58.3438 
G00 Z2.5400 
G00 X-53.8270 Y18.3029 
G01 Z-0.1778 F254.00 
G01 X-53.7671 Y18.2430 F508.00 
G01 X-53.7426 Y18.2243 
G01 X-52.5673 Y18.2243 
G01 X-52.5253 Y18.2069 
G01 X-52.4931 Y18.1747 
G01 X-52.4757 Y18.1327 
G01 X-52.4757 Y16.7873 
G01 X-52.4931 Y16.7453 
G01 X-52.5253 Y16.7131 
G01 X-52.5673 Y16.6957 
G01 X-54.1127 Y16.6957 
G01 X-54.1547 Y16.7131 
G01 X-54.1869 Y16.7453 
G01 X-54.2043 Y16.7873 
G01 X-54.2043 Y17.0440 
G01 X-54.3936 Y17.1532 
G01 X-54.5904 Y17.3042 
G01 X-54.7658 Y17.4796 
G01 X-54.9168 Y17.6764 
G01 X-55.0408 Y17.8913 
G01 X-55.1357 Y18.1204 
G01 X-55.1999 Y18.3600 
G01 X-55.2187 Y18.5029 
G01 X-55.2275 Y18.5241 
G01 X-55.2275 Y18.5695 
G01 X-55.2323 Y18.6060 
G01 X-55.2323 Y19.1113 
G01 X-55.2275 Y19.1354 
G01 X-55.2275 Y19.5759 
G01 X-55.2101 Y19.6179 
G01 X-55.1779 Y19.6501 
G01 X-55.1359 Y19.6675 
G01 X-54.6954 Y19.6675 
G01 X-54.6713 Y19.6723 
G01 X-54.5487 Y19.6723 
G01 X-54.5246 Y19.6675 
G01 X-54.0841 Y19.6675 
G01 X-54.0421 Y19.6501 
G01 X-54.0099 Y19.6179 
G01 X-53.9925 Y19.5759 
G01 X-53.9925 Y19.1354 
G01 X-53.9877 Y19.1113 
G01 X-53.9877 Y18.7300 
G01 X-53.9863 Y18.6876 
G01 X-53.9753 Y18.6036 
G01 X-53.9533 Y18.5218 
G01 X-53.9209 Y18.4435 
G01 X-53.8785 Y18.3702 
G01 X-53.8270 Y18.3029 
G00 Z2.5400 
G00 X-50.3783 Y21.1963 
G01 Z-0.1778 F254.00 
G01 X-50.3555 Y21.1963 F508.00 
G01 X-50.3555 Y21.7273 
G01 X-50.3196 Y21.9997 
G01 X-50.2485 Y22.2650 
G01 X-50.1434 Y22.5188 
G01 X-50.0061 Y22.7567 
G01 X-49.8389 Y22.9746 
G01 X-49.6446 Y23.1689 
G01 X-49.4267 Y23.3361 
G01 X-49.1888 Y23.4734 
G01 X-48.9350 Y23.5785 
G01 X-48.6697 Y23.6496 
G01 X-48.3973 Y23.6855 
G01 X-48.1787 Y23.6855 
G01 X-48.0192 Y23.6538 
G01 X-47.8690 Y23.5915 
G01 X-47.7338 Y23.5012 
G01 X-47.6931 Y23.4605 
G01 X-47.6599 Y23.4279 
G01 X-47.6188 Y23.3862 
G01 X-47.5284 Y23.2510 
G01 X-47.4662 Y23.1008 
G01 X-47.4345 Y22.9413 
G01 X-47.4345 Y22.7787 
G01 X-47.4662 Y22.6192 
G01 X-47.5284 Y22.4690 
G01 X-47.6188 Y22.3338 
G01 X-47.6595 Y22.2931 
G01 X-47.6921 Y22.2599 
G01 X-47.7338 Y22.2188 
G01 X-47.8690 Y22.1285 
G01 X-48.0192 Y22.0662 
G01 X-48.1787 Y22.0345 
G01 X-48.2600 Y22.0345 
G01 X-48.2891 Y22.0335 
G01 X-48.3467 Y22.0260 
G01 X-48.4029 Y22.0109 
G01 X-48.4566 Y21.9887 
G01 X-48.5070 Y21.9596 
G01 X-48.5531 Y21.9242 
G01 X-48.5942 Y21.8831 
G01 X-48.6296 Y21.8370 
G01 X-48.6587 Y21.7866 
G01 X-48.6809 Y21.7329 
G01 X-48.6960 Y21.6767 
G01 X-48.7035 Y21.6191 
G01 X-48.7045 Y21.5900 
G01 X-48.7045 Y21.1963 
G01 X-48.6817 Y21.1963 
G01 X-48.5124 Y21.1626 
G01 X-48.3529 Y21.0966 
G01 X-48.2094 Y21.0007 
G01 X-48.0873 Y20.8786 
G01 X-47.9914 Y20.7351 
G01 X-47.9254 Y20.5756 
G01 X-47.8917 Y20.4063 
G01 X-47.8917 Y20.2337 
G01 X-47.9254 Y20.0644 
G01 X-47.9914 Y19.9049 
G01 X-48.0873 Y19.7614 
G01 X-48.2094 Y19.6393 
G01 X-48.3529 Y19.5434 
G01 X-48.5124 Y19.4774 
G01 X-48.6817 Y19.4437 
G01 X-50.3783 Y19.4437 
G01 X-50.5476 Y19.4774 
G01 X-50.7071 Y19.5434 
G01 X-50.8506 Y19.6393 
G01 X-50.9727 Y19.7614 
G01 X-51.0686 Y19.9049 
G01 X-51.1346 Y20.0644 
G01 X-51.1683 Y20.2337 
G01 X-51.1683 Y20.4063 
G01 X-51.1346 Y20.5756 
G01 X-51.0686 Y20.7351 
G01 X-50.9727 Y20.8786 
G01 X-50.8506 Y21.0007 
G01 X-50.7071 Y21.0966 
G01 X-50.5476 Y21.1626 
G01 X-50.3783 Y21.1963 
G00 Z2.5400 
G00 X-50.3783 Y18.6563 
G01 Z-0.1778 F254.00 
G01 X-48.6817 Y18.6563 F508.00 
G01 X-48.5124 Y18.6226 
G01 X-48.3529 Y18.5566 
G01 X-48.2094 Y18.4607 
G01 X-48.0873 Y18.3386 
G01 X-47.9914 Y18.1951 
G01 X-47.9254 Y18.0356 
G01 X-47.8917 Y17.8663 
G01 X-47.8917 Y17.6937 
G01 X-47.9254 Y17.5244 
G01 X-47.9914 Y17.3649 
G01 X-48.0873 Y17.2214 
G01 X-48.2094 Y17.0993 
G01 X-48.3529 Y17.0034 
G01 X-48.5124 Y16.9374 
G01 X-48.6817 Y16.9037 
G01 X-50.3783 Y16.9037 
G01 X-50.5476 Y16.9374 
G01 X-50.7071 Y17.0034 
G01 X-50.8506 Y17.0993 
G01 X-50.9727 Y17.2214 
G01 X-51.0686 Y17.3649 
G01 X-51.1346 Y17.5244 
G01 X-51.1683 Y17.6937 
G01 X-51.1683 Y17.8663 
G01 X-51.1346 Y18.0356 
G01 X-51.0686 Y18.1951 
G01 X-50.9727 Y18.3386 
G01 X-50.8506 Y18.4607 
G01 X-50.7071 Y18.5566 
G01 X-50.5476 Y18.6226 
G01 X-50.3783 Y18.6563 
G00 Z2.5400 
G00 X-48.6817 Y16.1163 
G01 Z-0.1778 F254.00 
G01 X-48.5124 Y16.0826 F508.00 
G01 X-48.3529 Y16.0166 
G01 X-48.2094 Y15.9207 
G01 X-48.0873 Y15.7986 
G01 X-47.9914 Y15.6551 
G01 X-47.9254 Y15.4956 
G01 X-47.8917 Y15.3263 
G01 X-47.8917 Y15.1537 
G01 X-47.9254 Y14.9844 
G01 X-47.9914 Y14.8249 
G01 X-48.0873 Y14.6814 
G01 X-48.2094 Y14.5593 
G01 X-48.3529 Y14.4634 
G01 X-48.5124 Y14.3974 
G01 X-48.6817 Y14.3637 
G01 X-50.3783 Y14.3637 
G01 X-50.5476 Y14.3974 
G01 X-50.7071 Y14.4634 
G01 X-50.8506 Y14.5593 
G01 X-50.9727 Y14.6814 
G01 X-51.0082 Y14.7345 
G01 X-53.5502 Y14.7345 
G01 X-53.9690 Y14.7721 
G01 X-54.0996 Y14.7957 
G01 X-54.1127 Y14.7957 
G01 X-54.1229 Y14.7999 
G01 X-54.3828 Y14.8469 
G01 X-54.7882 Y14.9584 
G01 X-55.1820 Y15.1057 
G01 X-55.5611 Y15.2876 
G01 X-55.9224 Y15.5027 
G01 X-56.2631 Y15.7491 
G01 X-56.3604 Y15.8338 
G01 X-56.4217 Y15.8871 
G01 X-56.5560 Y15.9997 
G01 X-56.8363 Y16.2101 
G01 X-57.1311 Y16.3997 
G01 X-57.4387 Y16.5676 
G01 X-57.7576 Y16.7130 
G01 X-58.0861 Y16.8350 
G01 X-58.3220 Y16.9037 
G01 X-59.2683 Y16.9037 
G01 X-59.4376 Y16.9374 
G01 X-59.5971 Y17.0034 
G01 X-59.7406 Y17.0993 
G01 X-59.8627 Y17.2214 
G01 X-59.9586 Y17.3649 
G01 X-60.0246 Y17.5244 
G01 X-60.0583 Y17.6937 
G01 X-60.0583 Y17.8663 
G01 X-60.0246 Y18.0356 
G01 X-59.9586 Y18.1951 
G01 X-59.8627 Y18.3386 
G01 X-59.7406 Y18.4607 
G01 X-59.5971 Y18.5566 
G01 X-59.4376 Y18.6226 
G01 X-59.2683 Y18.6563 
G01 X-57.5717 Y18.6563 
G01 X-57.4024 Y18.6226 
G01 X-57.2429 Y18.5566 
G01 X-57.0994 Y18.4607 
G01 X-56.9773 Y18.3386 
G01 X-56.8814 Y18.1951 
G01 X-56.8490 Y18.1167 
G01 X-56.6984 Y18.0481 
G01 X-56.2862 Y17.8231 
G01 X-55.8912 Y17.5689 
G01 X-55.5155 Y17.2870 
G01 X-55.3383 Y17.1329 
G01 X-55.2335 Y17.0458 
G01 X-55.0128 Y16.8862 
G01 X-54.7788 Y16.7469 
G01 X-54.5332 Y16.6290 
G01 X-54.2781 Y16.5336 
G01 X-54.0155 Y16.4614 
G01 X-53.7475 Y16.4129 
G01 X-53.4762 Y16.3885 
G01 X-53.3400 Y16.3855 
G01 X-49.7687 Y16.3855 
G01 X-49.6092 Y16.3538 
G01 X-49.4590 Y16.2915 
G01 X-49.3238 Y16.2012 
G01 X-49.2389 Y16.1163 
G01 X-48.6817 Y16.1163 
G00 Z2.5400 
G00 X-93.6591 Y3.3147 
G01 Z-0.1778 F254.00 
G01 X-93.6350 Y3.2906 F508.00 
G01 X-93.5890 Y3.2715 
G01 X-93.4538 Y3.1812 
G01 X-93.3388 Y3.0662 
G01 X-93.2485 Y2.9310 
G01 X-93.2294 Y2.8850 
G01 X-93.2053 Y2.8609 
G01 X-93.2053 Y2.8268 
G01 X-93.1862 Y2.7808 
G01 X-93.1545 Y2.6213 
G01 X-93.1545 Y2.4587 
G01 X-93.1862 Y2.2992 
G01 X-93.2053 Y2.2532 
G01 X-93.2053 Y2.2191 
G01 X-93.2294 Y2.1950 
G01 X-93.2485 Y2.1490 
G01 X-93.3388 Y2.0138 
G01 X-93.4538 Y1.8988 
G01 X-93.5890 Y1.8085 
G01 X-93.6350 Y1.7894 
G01 X-93.6591 Y1.7653 
G01 X-93.6932 Y1.7653 
G01 X-93.7392 Y1.7462 
G01 X-93.8987 Y1.7145 
G01 X-95.4264 Y1.7145 
G01 X-95.7772 Y1.7514 
G01 X-96.1222 Y1.8247 
G01 X-96.4577 Y1.9337 
G01 X-96.7800 Y2.0772 
G01 X-97.0855 Y2.2536 
G01 X-97.3709 Y2.4609 
G01 X-97.6330 Y2.6970 
G01 X-97.8691 Y2.9591 
G01 X-98.0764 Y3.2445 
G01 X-98.2528 Y3.5500 
G01 X-98.3963 Y3.8723 
G01 X-98.5053 Y4.2077 
G01 X-98.5786 Y4.5528 
G01 X-98.6155 Y4.9036 
G01 X-98.6155 Y5.2588 
G01 X-98.5778 Y5.6143 
G01 X-98.5029 Y5.9639 
G01 X-98.3915 Y6.3036 
G01 X-98.2450 Y6.6298 
G01 X-98.0649 Y6.9386 
G01 X-97.8533 Y7.2268 
G01 X-97.6125 Y7.4911 
G01 X-97.3451 Y7.7285 
G01 X-97.0543 Y7.9364 
G01 X-96.7431 Y8.1125 
G01 X-96.4152 Y8.2549 
G01 X-96.0740 Y8.3618 
G01 X-95.7235 Y8.4323 
G01 X-95.6748 Y8.4368 
G01 X-95.6447 Y8.4669 
G01 X-95.6027 Y8.4843 
G01 X-94.2573 Y8.4843 
G01 X-94.2153 Y8.4669 
G01 X-94.1831 Y8.4347 
G01 X-94.1657 Y8.3927 
G01 X-94.1657 Y7.9382 
G01 X-94.1574 Y7.9219 
G01 X-94.1133 Y7.7654 
G01 X-94.1007 Y7.6032 
G01 X-94.1199 Y7.4418 
G01 X-94.1657 Y7.3010 
G01 X-94.1657 Y6.8473 
G01 X-94.1831 Y6.8053 
G01 X-94.2153 Y6.7731 
G01 X-94.2573 Y6.7557 
G01 X-95.6027 Y6.7557 
G01 X-95.6261 Y6.7654 
G01 X-95.6626 Y6.7581 
G01 X-95.8370 Y6.7034 
G01 X-96.0047 Y6.6306 
G01 X-96.1638 Y6.5405 
G01 X-96.3125 Y6.4342 
G01 X-96.4492 Y6.3128 
G01 X-96.5724 Y6.1777 
G01 X-96.6806 Y6.0303 
G01 X-96.7726 Y5.8724 
G01 X-96.8476 Y5.7057 
G01 X-96.9045 Y5.5319 
G01 X-96.9428 Y5.3532 
G01 X-96.9621 Y5.1714 
G01 X-96.9645 Y5.0800 
G01 X-96.9622 Y4.9903 
G01 X-96.9434 Y4.8118 
G01 X-96.9061 Y4.6363 
G01 X-96.8506 Y4.4656 
G01 X-96.7776 Y4.3016 
G01 X-96.6879 Y4.1462 
G01 X-96.5824 Y4.0010 
G01 X-96.4623 Y3.8677 
G01 X-96.3290 Y3.7476 
G01 X-96.1838 Y3.6421 
G01 X-96.0284 Y3.5524 
G01 X-95.8644 Y3.4794 
G01 X-95.6937 Y3.4239 
G01 X-95.5182 Y3.3866 
G01 X-95.3397 Y3.3678 
G01 X-95.2500 Y3.3655 
G01 X-93.8987 Y3.3655 
G01 X-93.7392 Y3.3338 
G01 X-93.6932 Y3.3147 
G01 X-93.6591 Y3.3147 
G00 Z2.5400 
G00 X-94.7547 Y4.7591 
G01 Z-0.1778 F254.00 
G01 X-94.7547 Y4.7932 F508.00 
G01 X-94.7738 Y4.8392 
G01 X-94.8055 Y4.9987 
G01 X-94.8055 Y5.1613 
G01 X-94.7738 Y5.3208 
G01 X-94.7547 Y5.3668 
G01 X-94.7547 Y5.4009 
G01 X-94.7306 Y5.4250 
G01 X-94.7115 Y5.4710 
G01 X-94.6212 Y5.6062 
G01 X-94.5062 Y5.7212 
G01 X-94.3710 Y5.8115 
G01 X-94.3250 Y5.8306 
G01 X-94.3009 Y5.8547 
G01 X-94.2668 Y5.8547 
G01 X-94.2208 Y5.8738 
G01 X-94.0613 Y5.9055 
G01 X-82.3389 Y5.9055 
G01 X-82.2976 Y5.9226 
G01 X-82.1283 Y5.9563 
G01 X-80.4317 Y5.9563 
G01 X-80.2624 Y5.9226 
G01 X-80.1029 Y5.8566 
G01 X-79.9594 Y5.7607 
G01 X-79.8373 Y5.6386 
G01 X-79.7414 Y5.4951 
G01 X-79.6754 Y5.3356 
G01 X-79.6417 Y5.1663 
G01 X-79.6417 Y4.9937 
G01 X-79.6754 Y4.8244 
G01 X-79.7414 Y4.6649 
G01 X-79.8373 Y4.5214 
G01 X-79.9594 Y4.3993 
G01 X-80.1029 Y4.3034 
G01 X-80.2624 Y4.2374 
G01 X-80.4317 Y4.2037 
G01 X-80.4545 Y4.2037 
G01 X-80.4545 Y3.8100 
G01 X-80.4522 Y3.7203 
G01 X-80.4334 Y3.5418 
G01 X-80.3961 Y3.3662 
G01 X-80.3406 Y3.1956 
G01 X-80.2676 Y3.0316 
G01 X-80.1779 Y2.8762 
G01 X-80.0724 Y2.7310 
G01 X-79.9523 Y2.5977 
G01 X-79.8190 Y2.4776 
G01 X-79.6738 Y2.3721 
G01 X-79.5184 Y2.2824 
G01 X-79.3544 Y2.2094 
G01 X-79.1837 Y2.1539 
G01 X-79.0082 Y2.1166 
G01 X-78.8297 Y2.0978 
G01 X-78.7400 Y2.0955 
G01 X-29.2100 Y2.0955 
G01 X-29.0798 Y2.0983 
G01 X-28.8204 Y2.1210 
G01 X-28.5640 Y2.1662 
G01 X-28.3125 Y2.2336 
G01 X-28.0679 Y2.3227 
G01 X-27.8319 Y2.4327 
G01 X-27.6064 Y2.5629 
G01 X-27.3931 Y2.7122 
G01 X-27.1937 Y2.8796 
G01 X-27.0096 Y3.0637 
G01 X-26.8422 Y3.2631 
G01 X-26.6929 Y3.4764 
G01 X-26.5627 Y3.7019 
G01 X-26.4527 Y3.9379 
G01 X-26.3636 Y4.1825 
G01 X-26.2962 Y4.4340 
G01 X-26.2510 Y4.6904 
G01 X-26.2283 Y4.9498 
G01 X-26.2255 Y5.0800 
G01 X-26.2255 Y13.1445 
G01 X-31.9151 Y13.1445 
G01 X-31.9151 Y12.8924 
G01 X-31.9423 Y12.7207 
G01 X-31.9961 Y12.5553 
G01 X-32.0750 Y12.4003 
G01 X-32.1772 Y12.2596 
G01 X-32.3002 Y12.1366 
G01 X-32.4409 Y12.0344 
G01 X-32.5959 Y11.9555 
G01 X-32.7613 Y11.9017 
G01 X-32.9330 Y11.8745 
G01 X-33.1070 Y11.8745 
G01 X-33.2787 Y11.9017 
G01 X-33.4441 Y11.9555 
G01 X-33.5991 Y12.0344 
G01 X-33.7398 Y12.1366 
G01 X-33.8628 Y12.2596 
G01 X-33.9650 Y12.4003 
G01 X-34.0439 Y12.5553 
G01 X-34.0977 Y12.7207 
G01 X-34.1249 Y12.8924 
G01 X-34.1249 Y15.0476 
G01 X-34.0977 Y15.2193 
G01 X-34.0439 Y15.3847 
G01 X-33.9650 Y15.5397 
G01 X-33.8628 Y15.6804 
G01 X-33.7398 Y15.8034 
G01 X-33.5991 Y15.9056 
G01 X-33.4441 Y15.9845 
G01 X-33.2787 Y16.0383 
G01 X-33.1070 Y16.0655 
G01 X-32.9330 Y16.0655 
G01 X-32.7613 Y16.0383 
G01 X-32.5959 Y15.9845 
G01 X-32.4409 Y15.9056 
G01 X-32.3002 Y15.8034 
G01 X-32.1772 Y15.6804 
G01 X-32.0750 Y15.5397 
G01 X-31.9961 Y15.3847 
G01 X-31.9423 Y15.2193 
G01 X-31.9151 Y15.0476 
G01 X-31.9151 Y14.7955 
G01 X-26.2255 Y14.7955 
G01 X-26.2255 Y32.1945 
G01 X-31.9151 Y32.1945 
G01 X-31.9151 Y31.9424 
G01 X-31.9423 Y31.7707 
G01 X-31.9961 Y31.6053 
G01 X-32.0750 Y31.4503 
G01 X-32.1772 Y31.3096 
G01 X-32.3002 Y31.1866 
G01 X-32.4409 Y31.0844 
G01 X-32.5959 Y31.0054 
G01 X-32.7613 Y30.9517 
G01 X-32.9330 Y30.9245 
G01 X-33.1070 Y30.9245 
G01 X-33.2787 Y30.9517 
G01 X-33.4441 Y31.0054 
G01 X-33.5991 Y31.0844 
G01 X-33.7398 Y31.1866 
G01 X-33.8628 Y31.3096 
G01 X-33.9650 Y31.4503 
G01 X-34.0439 Y31.6053 
G01 X-34.0977 Y31.7707 
G01 X-34.1249 Y31.9424 
G01 X-34.1249 Y34.0976 
G01 X-34.0977 Y34.2693 
G01 X-34.0439 Y34.4347 
G01 X-33.9650 Y34.5897 
G01 X-33.8628 Y34.7304 
G01 X-33.7398 Y34.8534 
G01 X-33.5991 Y34.9556 
G01 X-33.4441 Y35.0345 
G01 X-33.2787 Y35.0883 
G01 X-33.1070 Y35.1155 
G01 X-32.9330 Y35.1155 
G01 X-32.7613 Y35.0883 
G01 X-32.5959 Y35.0345 
G01 X-32.4409 Y34.9556 
G01 X-32.3002 Y34.8534 
G01 X-32.1772 Y34.7304 
G01 X-32.0750 Y34.5897 
G01 X-31.9961 Y34.4347 
G01 X-31.9423 Y34.2693 
G01 X-31.9151 Y34.0976 
G01 X-31.9151 Y33.8455 
G01 X-26.2255 Y33.8455 
G01 X-26.2255 Y36.0045 
G01 X-41.9913 Y36.0045 
G01 X-42.1508 Y36.0362 
G01 X-42.3010 Y36.0984 
G01 X-42.4362 Y36.1888 
G01 X-42.4769 Y36.2295 
G01 X-42.5101 Y36.2621 
G01 X-42.5512 Y36.3038 
G01 X-42.6415 Y36.4390 
G01 X-42.7038 Y36.5892 
G01 X-42.7355 Y36.7487 
G01 X-42.7355 Y36.9113 
G01 X-42.7038 Y37.0708 
G01 X-42.6415 Y37.2210 
G01 X-42.5512 Y37.3562 
G01 X-42.5105 Y37.3969 
G01 X-42.4779 Y37.4301 
G01 X-42.4362 Y37.4712 
G01 X-42.3010 Y37.5615 
G01 X-42.1508 Y37.6238 
G01 X-41.9913 Y37.6555 
G01 X-26.2255 Y37.6555 
G01 X-26.2255 Y53.9220 
G01 X-26.4384 Y54.0028 
G01 X-26.7089 Y54.1448 
G01 X-26.9604 Y54.3183 
G01 X-27.1891 Y54.5209 
G01 X-27.3917 Y54.7496 
G01 X-27.5652 Y55.0011 
G01 X-27.7072 Y55.2716 
G01 X-27.8156 Y55.5573 
G01 X-27.8887 Y55.8539 
G01 X-27.9255 Y56.1572 
G01 X-27.9255 Y57.0913 
G01 X-27.8938 Y57.2508 
G01 X-27.8315 Y57.4010 
G01 X-27.7643 Y57.5017 
G01 X-27.7643 Y57.5254 
G01 X-27.7388 Y57.6538 
G01 X-27.6887 Y57.7747 
G01 X-27.6160 Y57.8835 
G01 X-27.5235 Y57.9760 
G01 X-27.4147 Y58.0487 
G01 X-27.2938 Y58.0988 
G01 X-27.1654 Y58.1243 
G01 X-27.0346 Y58.1243 
G01 X-26.9062 Y58.0988 
G01 X-26.7853 Y58.0487 
G01 X-26.6765 Y57.9760 
G01 X-26.5840 Y57.8835 
G01 X-26.5113 Y57.7747 
G01 X-26.4612 Y57.6538 
G01 X-26.4357 Y57.5254 
G01 X-26.4357 Y57.5017 
G01 X-26.3685 Y57.4010 
G01 X-26.3062 Y57.2508 
G01 X-26.2745 Y57.0913 
G01 X-26.2745 Y57.0100 
G01 X-26.2723 Y56.9276 
G01 X-26.2551 Y56.7637 
G01 X-26.2209 Y56.6025 
G01 X-26.1699 Y56.4457 
G01 X-26.1029 Y56.2952 
G01 X-26.0205 Y56.1525 
G01 X-25.9236 Y56.0191 
G01 X-25.8133 Y55.8967 
G01 X-25.6909 Y55.7864 
G01 X-25.5575 Y55.6895 
G01 X-25.4148 Y55.6071 
G01 X-25.2643 Y55.5401 
G01 X-25.1075 Y55.4891 
G01 X-24.9463 Y55.4549 
G01 X-24.7824 Y55.4377 
G01 X-24.7000 Y55.4355 
G01 X-20.3200 Y55.4355 
G01 X-20.3169 Y55.4358 
G01 X-20.3131 Y55.4373 
G01 X-20.3097 Y55.4397 
G01 X-20.3073 Y55.4430 
G01 X-20.3058 Y55.4469 
G01 X-20.3055 Y55.4500 
G01 X-20.3055 Y57.0913 
G01 X-20.2738 Y57.2508 
G01 X-20.2115 Y57.4010 
G01 X-20.1443 Y57.5017 
G01 X-20.1443 Y57.5254 
G01 X-20.1188 Y57.6538 
G01 X-20.0687 Y57.7747 
G01 X-19.9960 Y57.8835 
G01 X-19.9035 Y57.9760 
G01 X-19.7947 Y58.0487 
G01 X-19.6738 Y58.0988 
G01 X-19.5454 Y58.1243 
G01 X-19.4146 Y58.1243 
G01 X-19.2862 Y58.0988 
G01 X-19.1653 Y58.0487 
G01 X-19.0565 Y57.9760 
G01 X-18.9640 Y57.8835 
G01 X-18.8913 Y57.7747 
G01 X-18.8412 Y57.6538 
G01 X-18.8157 Y57.5254 
G01 X-18.8157 Y57.5017 
G01 X-18.7485 Y57.4010 
G01 X-18.6862 Y57.2508 
G01 X-18.6545 Y57.0913 
G01 X-18.6545 Y55.4015 
G01 X-18.6403 Y55.3996 
G01 X-18.3750 Y55.3285 
G01 X-18.1212 Y55.2234 
G01 X-17.8833 Y55.0861 
G01 X-17.7800 Y55.0068 
G01 X-17.6767 Y55.0861 
G01 X-17.4388 Y55.2234 
G01 X-17.1850 Y55.3285 
G01 X-16.9197 Y55.3996 
G01 X-16.6473 Y55.4355 
G01 X-12.6855 Y55.4355 
G01 X-12.6855 Y57.0913 
G01 X-12.6538 Y57.2508 
G01 X-12.5915 Y57.4010 
G01 X-12.5243 Y57.5017 
G01 X-12.5243 Y57.5254 
G01 X-12.4988 Y57.6538 
G01 X-12.4487 Y57.7747 
G01 X-12.3760 Y57.8835 
G01 X-12.2835 Y57.9760 
G01 X-12.1747 Y58.0487 
G01 X-12.0538 Y58.0988 
G01 X-11.9254 Y58.1243 
G01 X-11.7946 Y58.1243 
G01 X-11.6662 Y58.0988 
G01 X-11.5453 Y58.0487 
G01 X-11.4365 Y57.9760 
G01 X-11.3440 Y57.8835 
G01 X-11.2713 Y57.7747 
G01 X-11.2212 Y57.6538 
G01 X-11.1957 Y57.5254 
G01 X-11.1957 Y57.5017 
G01 X-11.1285 Y57.4010 
G01 X-11.0662 Y57.2508 
G01 X-11.0345 Y57.0913 
G01 X-11.0345 Y55.4355 
G01 X-10.0787 Y55.4355 
G01 X-9.9192 Y55.4038 
G01 X-9.7690 Y55.3415 
G01 X-9.6338 Y55.2512 
G01 X-9.5188 Y55.1362 
G01 X-9.4284 Y55.0010 
G01 X-9.3662 Y54.8508 
G01 X-9.3345 Y54.6913 
G01 X-9.3345 Y52.1287 
G01 X-9.3662 Y51.9692 
G01 X-9.4284 Y51.8190 
G01 X-9.4957 Y51.7183 
G01 X-9.4957 Y51.6946 
G01 X-9.5212 Y51.5662 
G01 X-9.5713 Y51.4453 
G01 X-9.6440 Y51.3365 
G01 X-9.7365 Y51.2440 
G01 X-9.8453 Y51.1713 
G01 X-9.9662 Y51.1212 
G01 X-10.0946 Y51.0957 
G01 X-10.2254 Y51.0957 
G01 X-10.3538 Y51.1212 
G01 X-10.4747 Y51.1713 
G01 X-10.5835 Y51.2440 
G01 X-10.6760 Y51.3365 
G01 X-10.7487 Y51.4453 
G01 X-10.7988 Y51.5662 
G01 X-10.8243 Y51.6946 
G01 X-10.8243 Y51.7183 
G01 X-10.8915 Y51.8190 
G01 X-10.9538 Y51.9692 
G01 X-10.9855 Y52.1287 
G01 X-10.9855 Y53.7845 
G01 X-16.5100 Y53.7845 
G01 X-16.5391 Y53.7835 
G01 X-16.5967 Y53.7760 
G01 X-16.6529 Y53.7609 
G01 X-16.7066 Y53.7387 
G01 X-16.7569 Y53.7096 
G01 X-16.8031 Y53.6742 
G01 X-16.8442 Y53.6331 
G01 X-16.8796 Y53.5870 
G01 X-16.9087 Y53.5366 
G01 X-16.9309 Y53.4829 
G01 X-16.9460 Y53.4267 
G01 X-16.9535 Y53.3691 
G01 X-16.9545 Y53.3400 
G01 X-16.9545 Y52.1287 
G01 X-16.9862 Y51.9692 
G01 X-17.0485 Y51.8190 
G01 X-17.1157 Y51.7183 
G01 X-17.1157 Y51.6946 
G01 X-17.1412 Y51.5662 
G01 X-17.1913 Y51.4453 
G01 X-17.2640 Y51.3365 
G01 X-17.3565 Y51.2440 
G01 X-17.4653 Y51.1713 
G01 X-17.5862 Y51.1212 
G01 X-17.7146 Y51.0957 
G01 X-17.8454 Y51.0957 
G01 X-17.9738 Y51.1212 
G01 X-18.0947 Y51.1713 
G01 X-18.2035 Y51.2440 
G01 X-18.2960 Y51.3365 
G01 X-18.3687 Y51.4453 
G01 X-18.4188 Y51.5662 
G01 X-18.4443 Y51.6946 
G01 X-18.4443 Y51.7183 
G01 X-18.5115 Y51.8190 
G01 X-18.5738 Y51.9692 
G01 X-18.6055 Y52.1287 
G01 X-18.6055 Y53.3400 
G01 X-18.6065 Y53.3691 
G01 X-18.6140 Y53.4267 
G01 X-18.6291 Y53.4829 
G01 X-18.6513 Y53.5366 
G01 X-18.6804 Y53.5870 
G01 X-18.7158 Y53.6331 
G01 X-18.7569 Y53.6742 
G01 X-18.8030 Y53.7096 
G01 X-18.8534 Y53.7387 
G01 X-18.9071 Y53.7609 
G01 X-18.9633 Y53.7760 
G01 X-19.0209 Y53.7835 
G01 X-19.0500 Y53.7845 
G01 X-24.5745 Y53.7845 
G01 X-24.5745 Y4.8776 
G01 X-24.6098 Y4.4744 
G01 X-24.6801 Y4.0757 
G01 X-24.7848 Y3.6848 
G01 X-24.9233 Y3.3044 
G01 X-25.0943 Y2.9375 
G01 X-25.2967 Y2.5870 
G01 X-25.5289 Y2.2554 
G01 X-25.7891 Y1.9453 
G01 X-26.0753 Y1.6591 
G01 X-26.3854 Y1.3989 
G01 X-26.7170 Y1.1667 
G01 X-27.0675 Y0.9643 
G01 X-27.4344 Y0.7933 
G01 X-27.8147 Y0.6548 
G01 X-28.2057 Y0.5501 
G01 X-28.6044 Y0.4798 
G01 X-29.0076 Y0.4445 
G01 X-78.9164 Y0.4445 
G01 X-79.2672 Y0.4814 
G01 X-79.6122 Y0.5547 
G01 X-79.9477 Y0.6637 
G01 X-80.2700 Y0.8072 
G01 X-80.5755 Y0.9836 
G01 X-80.8609 Y1.1909 
G01 X-81.1230 Y1.4270 
G01 X-81.3591 Y1.6891 
G01 X-81.5664 Y1.9745 
G01 X-81.7428 Y2.2800 
G01 X-81.8863 Y2.6023 
G01 X-81.9953 Y2.9377 
G01 X-82.0686 Y3.2828 
G01 X-82.1055 Y3.6336 
G01 X-82.1055 Y4.2037 
G01 X-82.1283 Y4.2037 
G01 X-82.2976 Y4.2374 
G01 X-82.3389 Y4.2545 
G01 X-94.0613 Y4.2545 
G01 X-94.2208 Y4.2862 
G01 X-94.2668 Y4.3053 
G01 X-94.3009 Y4.3053 
G01 X-94.3250 Y4.3294 
G01 X-94.3710 Y4.3485 
G01 X-94.5062 Y4.4388 
G01 X-94.6212 Y4.5538 
G01 X-94.7115 Y4.6890 
G01 X-94.7306 Y4.7350 
G01 X-94.7547 Y4.7591 
G00 Z2.5400 
G00 X-88.1273 Y11.8743 
G01 Z-0.1778 F254.00 
G01 X-88.0853 Y11.8569 F508.00 
G01 X-88.0531 Y11.8247 
G01 X-88.0357 Y11.7827 
G01 X-88.0357 Y10.4373 
G01 X-88.0531 Y10.3953 
G01 X-88.0853 Y10.3631 
G01 X-88.1273 Y10.3457 
G01 X-88.5880 Y10.3457 
G01 X-88.6592 Y10.3162 
G01 X-88.8187 Y10.2845 
G01 X-93.7602 Y10.2845 
G01 X-93.9576 Y10.3193 
G01 X-94.1460 Y10.3879 
G01 X-94.3195 Y10.4881 
G01 X-94.4731 Y10.6169 
G01 X-94.6019 Y10.7705 
G01 X-94.7021 Y10.9440 
G01 X-94.7707 Y11.1324 
G01 X-94.8055 Y11.3298 
G01 X-94.8055 Y11.5113 
G01 X-94.7738 Y11.6708 
G01 X-94.7547 Y11.7168 
G01 X-94.7547 Y11.7509 
G01 X-94.7306 Y11.7750 
G01 X-94.7115 Y11.8210 
G01 X-94.6212 Y11.9562 
G01 X-94.5062 Y12.0712 
G01 X-94.3710 Y12.1615 
G01 X-94.3250 Y12.1806 
G01 X-94.3009 Y12.2047 
G01 X-94.2668 Y12.2047 
G01 X-94.2208 Y12.2238 
G01 X-94.0613 Y12.2555 
G01 X-93.8987 Y12.2555 
G01 X-93.7392 Y12.2238 
G01 X-93.6932 Y12.2047 
G01 X-93.6591 Y12.2047 
G01 X-93.6350 Y12.1806 
G01 X-93.5890 Y12.1615 
G01 X-93.4538 Y12.0712 
G01 X-93.3388 Y11.9562 
G01 X-93.3249 Y11.9355 
G01 X-88.8187 Y11.9355 
G01 X-88.6592 Y11.9038 
G01 X-88.5880 Y11.8743 
G01 X-88.1273 Y11.8743 
G00 Z2.5400 
G00 X-89.6727 Y9.9743 
G01 Z-0.1778 F254.00 
G01 X-89.2120 Y9.9743 F508.00 
G01 X-89.1408 Y10.0038 
G01 X-88.9813 Y10.0355 
G01 X-86.0400 Y10.0355 
G01 X-86.0311 Y10.0358 
G01 X-86.0135 Y10.0383 
G01 X-85.9965 Y10.0433 
G01 X-85.9803 Y10.0507 
G01 X-85.9654 Y10.0603 
G01 X-85.9520 Y10.0720 
G01 X-85.9403 Y10.0854 
G01 X-85.9307 Y10.1003 
G01 X-85.9233 Y10.1165 
G01 X-85.9183 Y10.1335 
G01 X-85.9158 Y10.1511 
G01 X-85.9155 Y10.1600 
G01 X-85.9155 Y10.2413 
G01 X-85.8838 Y10.4008 
G01 X-85.8215 Y10.5510 
G01 X-85.7312 Y10.6862 
G01 X-85.6162 Y10.8012 
G01 X-85.4810 Y10.8915 
G01 X-85.3308 Y10.9538 
G01 X-85.1713 Y10.9855 
G01 X-85.0087 Y10.9855 
G01 X-84.8492 Y10.9538 
G01 X-84.6990 Y10.8915 
G01 X-84.5638 Y10.8012 
G01 X-84.4488 Y10.6862 
G01 X-84.3585 Y10.5510 
G01 X-84.2962 Y10.4008 
G01 X-84.2645 Y10.2413 
G01 X-84.2645 Y7.5387 
G01 X-84.2962 Y7.3792 
G01 X-84.3585 Y7.2290 
G01 X-84.4488 Y7.0938 
G01 X-84.4895 Y7.0531 
G01 X-84.5221 Y7.0199 
G01 X-84.5638 Y6.9788 
G01 X-84.6990 Y6.8885 
G01 X-84.8492 Y6.8262 
G01 X-85.0087 Y6.7945 
G01 X-85.1713 Y6.7945 
G01 X-85.3308 Y6.8262 
G01 X-85.4810 Y6.8885 
G01 X-85.6162 Y6.9788 
G01 X-85.6569 Y7.0195 
G01 X-85.6901 Y7.0521 
G01 X-85.7312 Y7.0938 
G01 X-85.8215 Y7.2290 
G01 X-85.8838 Y7.3792 
G01 X-85.9155 Y7.5387 
G01 X-85.9155 Y8.3845 
G01 X-88.2197 Y8.3845 
G01 X-88.2833 Y8.2168 
G01 X-88.4191 Y7.9581 
G01 X-88.5851 Y7.7176 
G01 X-88.7789 Y7.4989 
G01 X-88.9976 Y7.3051 
G01 X-89.2381 Y7.1391 
G01 X-89.4968 Y7.0033 
G01 X-89.7701 Y6.8997 
G01 X-90.0538 Y6.8297 
G01 X-90.3439 Y6.7945 
G01 X-92.2939 Y6.7945 
G01 X-92.3153 Y6.7731 
G01 X-92.3573 Y6.7557 
G01 X-93.7027 Y6.7557 
G01 X-93.7447 Y6.7731 
G01 X-93.7769 Y6.8053 
G01 X-93.7943 Y6.8473 
G01 X-93.7943 Y7.3080 
G01 X-93.8238 Y7.3792 
G01 X-93.8555 Y7.5387 
G01 X-93.8555 Y7.7013 
G01 X-93.8238 Y7.8608 
G01 X-93.7943 Y7.9320 
G01 X-93.7943 Y8.3927 
G01 X-93.7769 Y8.4347 
G01 X-93.7447 Y8.4669 
G01 X-93.7027 Y8.4843 
G01 X-92.3573 Y8.4843 
G01 X-92.3153 Y8.4669 
G01 X-92.2939 Y8.4455 
G01 X-90.4900 Y8.4455 
G01 X-90.4438 Y8.4469 
G01 X-90.3522 Y8.4580 
G01 X-90.2626 Y8.4801 
G01 X-90.1762 Y8.5129 
G01 X-90.0945 Y8.5558 
G01 X-90.0185 Y8.6082 
G01 X-89.9494 Y8.6694 
G01 X-89.8882 Y8.7385 
G01 X-89.8358 Y8.8145 
G01 X-89.7929 Y8.8962 
G01 X-89.7643 Y8.9715 
G01 X-89.7643 Y9.8827 
G01 X-89.7469 Y9.9247 
G01 X-89.7147 Y9.9569 
G01 X-89.6727 Y9.9743 
G00 Z2.5400 
G00 X-85.4319 Y14.7955 
G01 Z-0.1778 F254.00 
G01 X-84.4612 Y15.7662 F508.00 
G01 X-84.3462 Y15.8812 
G01 X-84.2110 Y15.9715 
G01 X-84.0608 Y16.0338 
G01 X-83.9013 Y16.0655 
G01 X-82.3389 Y16.0655 
G01 X-82.2976 Y16.0826 
G01 X-82.1283 Y16.1163 
G01 X-80.4317 Y16.1163 
G01 X-80.2624 Y16.0826 
G01 X-80.1029 Y16.0166 
G01 X-79.9594 Y15.9207 
G01 X-79.8373 Y15.7986 
G01 X-79.7414 Y15.6551 
G01 X-79.6754 Y15.4956 
G01 X-79.6417 Y15.3263 
G01 X-79.6417 Y15.1537 
G01 X-79.6754 Y14.9844 
G01 X-79.7414 Y14.8249 
G01 X-79.8373 Y14.6814 
G01 X-79.9594 Y14.5593 
G01 X-80.1029 Y14.4634 
G01 X-80.2624 Y14.3974 
G01 X-80.4317 Y14.3637 
G01 X-82.1283 Y14.3637 
G01 X-82.2976 Y14.3974 
G01 X-82.3389 Y14.4145 
G01 X-83.4781 Y14.4145 
G01 X-84.5638 Y13.3288 
G01 X-84.6990 Y13.2385 
G01 X-84.8492 Y13.1762 
G01 X-85.0087 Y13.1445 
G01 X-99.1973 Y13.1445 
G01 X-99.4697 Y13.1804 
G01 X-99.7350 Y13.2515 
G01 X-99.9888 Y13.3566 
G01 X-100.2267 Y13.4939 
G01 X-100.4446 Y13.6611 
G01 X-100.6389 Y13.8554 
G01 X-100.8061 Y14.0733 
G01 X-100.9434 Y14.3112 
G01 X-101.0485 Y14.5650 
G01 X-101.1196 Y14.8303 
G01 X-101.1555 Y15.1027 
G01 X-101.1555 Y58.5573 
G01 X-101.1196 Y58.8297 
G01 X-101.0485 Y59.0950 
G01 X-100.9434 Y59.3488 
G01 X-100.8061 Y59.5867 
G01 X-100.6389 Y59.8046 
G01 X-100.4446 Y59.9989 
G01 X-100.2267 Y60.1661 
G01 X-99.9888 Y60.3034 
G01 X-99.7350 Y60.4085 
G01 X-99.4697 Y60.4796 
G01 X-99.1973 Y60.5155 
G01 X-99.0600 Y60.5155 
G01 X-98.9298 Y60.5183 
G01 X-98.6704 Y60.5410 
G01 X-98.4140 Y60.5862 
G01 X-98.1625 Y60.6536 
G01 X-97.9179 Y60.7427 
G01 X-97.6819 Y60.8527 
G01 X-97.4564 Y60.9829 
G01 X-97.2431 Y61.1322 
G01 X-97.0437 Y61.2996 
G01 X-96.8596 Y61.4837 
G01 X-96.6922 Y61.6832 
G01 X-96.5429 Y61.8964 
G01 X-96.4127 Y62.1219 
G01 X-96.3027 Y62.3579 
G01 X-96.2136 Y62.6025 
G01 X-96.1462 Y62.8540 
G01 X-96.1010 Y63.1104 
G01 X-96.0783 Y63.3698 
G01 X-96.0755 Y63.5000 
G01 X-96.0755 Y73.8839 
G01 X-96.0375 Y74.3300 
G01 X-95.9618 Y74.7714 
G01 X-95.8490 Y75.2047 
G01 X-95.6998 Y75.6269 
G01 X-95.5154 Y76.0349 
G01 X-95.2970 Y76.4258 
G01 X-95.0463 Y76.7968 
G01 X-94.7650 Y77.1452 
G01 X-94.4552 Y77.4685 
G01 X-94.1190 Y77.7643 
G01 X-93.7590 Y78.0306 
G01 X-93.3777 Y78.2654 
G01 X-92.9779 Y78.4670 
G01 X-92.5624 Y78.6339 
G01 X-92.1342 Y78.7650 
G01 X-91.6965 Y78.8594 
G01 X-91.2524 Y78.9162 
G01 X-90.8050 Y78.9353 
G01 X-90.3576 Y78.9162 
G01 X-89.9135 Y78.8594 
G01 X-89.4758 Y78.7650 
G01 X-89.0476 Y78.6339 
G01 X-88.6321 Y78.4670 
G01 X-88.2323 Y78.2654 
G01 X-87.8510 Y78.0306 
G01 X-87.4910 Y77.7643 
G01 X-87.1548 Y77.4685 
G01 X-86.8450 Y77.1452 
G01 X-86.5637 Y76.7968 
G01 X-86.3130 Y76.4259 
G01 X-86.0946 Y76.0349 
G01 X-85.9102 Y75.6269 
G01 X-85.7610 Y75.2047 
G01 X-85.6482 Y74.7714 
G01 X-85.5725 Y74.3300 
G01 X-85.5345 Y73.8839 
G01 X-85.5345 Y61.7855 
G01 X-72.3900 Y61.7855 
G01 X-72.3811 Y61.7858 
G01 X-72.3635 Y61.7883 
G01 X-72.3465 Y61.7933 
G01 X-72.3303 Y61.8007 
G01 X-72.3154 Y61.8103 
G01 X-72.3020 Y61.8220 
G01 X-72.2903 Y61.8354 
G01 X-72.2807 Y61.8503 
G01 X-72.2733 Y61.8665 
G01 X-72.2683 Y61.8835 
G01 X-72.2658 Y61.9011 
G01 X-72.2655 Y61.9100 
G01 X-72.2655 Y63.5813 
G01 X-72.2338 Y63.7408 
G01 X-72.2043 Y63.8120 
G01 X-72.2043 Y64.2727 
G01 X-72.1869 Y64.3147 
G01 X-72.1547 Y64.3469 
G01 X-72.1127 Y64.3643 
G01 X-70.7673 Y64.3643 
G01 X-70.7253 Y64.3469 
G01 X-70.6931 Y64.3147 
G01 X-70.6757 Y64.2727 
G01 X-70.6757 Y63.8120 
G01 X-70.6462 Y63.7408 
G01 X-70.6145 Y63.5813 
G01 X-70.6145 Y61.7830 
G01 X-70.6506 Y61.5316 
G01 X-70.7222 Y61.2879 
G01 X-70.8277 Y61.0569 
G01 X-70.9650 Y60.8433 
G01 X-71.1313 Y60.6513 
G01 X-71.3233 Y60.4850 
G01 X-71.5369 Y60.3477 
G01 X-71.7679 Y60.2422 
G01 X-72.0116 Y60.1706 
G01 X-72.2630 Y60.1345 
G01 X-86.0173 Y60.1345 
G01 X-86.2897 Y60.1704 
G01 X-86.5550 Y60.2415 
G01 X-86.8088 Y60.3466 
G01 X-87.0467 Y60.4839 
G01 X-87.2646 Y60.6511 
G01 X-87.4589 Y60.8454 
G01 X-87.6261 Y61.0633 
G01 X-87.7634 Y61.3012 
G01 X-87.8685 Y61.5550 
G01 X-87.9396 Y61.8203 
G01 X-87.9755 Y62.0927 
G01 X-87.9755 Y62.3113 
G01 X-87.9438 Y62.4708 
G01 X-87.8815 Y62.6210 
G01 X-87.7912 Y62.7562 
G01 X-87.6762 Y62.8712 
G01 X-87.5410 Y62.9615 
G01 X-87.3908 Y63.0238 
G01 X-87.2313 Y63.0555 
G01 X-87.1855 Y63.0555 
G01 X-87.1855 Y73.6600 
G01 X-87.1888 Y73.8136 
G01 X-87.2148 Y74.1197 
G01 X-87.2667 Y74.4226 
G01 X-87.3441 Y74.7199 
G01 X-87.4465 Y75.0096 
G01 X-87.5731 Y75.2895 
G01 X-87.7229 Y75.5577 
G01 X-87.8949 Y75.8123 
G01 X-88.0879 Y76.0513 
G01 X-88.3005 Y76.2731 
G01 X-88.5312 Y76.4761 
G01 X-88.7782 Y76.6588 
G01 X-89.0398 Y76.8199 
G01 X-89.3141 Y76.9582 
G01 X-89.5992 Y77.0727 
G01 X-89.8930 Y77.1627 
G01 X-90.1933 Y77.2274 
G01 X-90.4980 Y77.2665 
G01 X-90.8050 Y77.2795 
G01 X-91.1120 Y77.2665 
G01 X-91.4167 Y77.2274 
G01 X-91.7170 Y77.1627 
G01 X-92.0108 Y77.0727 
G01 X-92.2959 Y76.9582 
G01 X-92.5702 Y76.8199 
G01 X-92.8318 Y76.6588 
G01 X-93.0788 Y76.4761 
G01 X-93.3095 Y76.2731 
G01 X-93.5221 Y76.0513 
G01 X-93.7151 Y75.8123 
G01 X-93.8871 Y75.5577 
G01 X-94.0369 Y75.2895 
G01 X-94.1635 Y75.0096 
G01 X-94.2658 Y74.7199 
G01 X-94.3433 Y74.4226 
G01 X-94.3952 Y74.1197 
G01 X-94.4212 Y73.8136 
G01 X-94.4245 Y73.6600 
G01 X-94.4245 Y63.2976 
G01 X-94.4598 Y62.8944 
G01 X-94.5301 Y62.4957 
G01 X-94.6348 Y62.1048 
G01 X-94.7733 Y61.7244 
G01 X-94.9443 Y61.3575 
G01 X-95.1467 Y61.0070 
G01 X-95.3789 Y60.6754 
G01 X-95.6391 Y60.3653 
G01 X-95.9253 Y60.0791 
G01 X-96.2354 Y59.8189 
G01 X-96.5670 Y59.5867 
G01 X-96.9175 Y59.3843 
G01 X-97.2844 Y59.2133 
G01 X-97.6647 Y59.0748 
G01 X-98.0557 Y58.9701 
G01 X-98.4544 Y58.8998 
G01 X-98.8576 Y58.8645 
G01 X-99.0600 Y58.8645 
G01 X-99.0891 Y58.8635 
G01 X-99.1467 Y58.8560 
G01 X-99.2029 Y58.8409 
G01 X-99.2566 Y58.8187 
G01 X-99.3070 Y58.7896 
G01 X-99.3531 Y58.7542 
G01 X-99.3942 Y58.7131 
G01 X-99.4296 Y58.6669 
G01 X-99.4587 Y58.6166 
G01 X-99.4809 Y58.5629 
G01 X-99.4960 Y58.5067 
G01 X-99.5035 Y58.4491 
G01 X-99.5045 Y58.4200 
G01 X-99.5045 Y15.2400 
G01 X-99.5035 Y15.2109 
G01 X-99.4960 Y15.1533 
G01 X-99.4809 Y15.0971 
G01 X-99.4587 Y15.0434 
G01 X-99.4296 Y14.9930 
G01 X-99.3942 Y14.9469 
G01 X-99.3531 Y14.9058 
G01 X-99.3070 Y14.8704 
G01 X-99.2566 Y14.8413 
G01 X-99.2029 Y14.8191 
G01 X-99.1467 Y14.8040 
G01 X-99.0891 Y14.7965 
G01 X-99.0600 Y14.7955 
G01 X-93.8987 Y14.7955 
G01 X-85.4319 Y14.7955 
G00 Z2.5400 
G00 X-96.4438 Y49.0355 
G01 Z-0.1778 F254.00 
G01 X-96.4438 Y50.0245 F508.00 
G01 X-95.7445 Y50.7238 
G01 X-94.7555 Y50.7238 
G01 X-94.0562 Y50.0245 
G01 X-94.0562 Y49.0355 
G01 X-94.4245 Y48.6672 
G01 X-94.4245 Y46.1361 
G01 X-94.4031 Y46.1147 
G01 X-94.3857 Y46.0727 
G01 X-94.3857 Y44.7273 
G01 X-94.4031 Y44.6853 
G01 X-94.4353 Y44.6531 
G01 X-94.4773 Y44.6357 
G01 X-94.9380 Y44.6357 
G01 X-95.0092 Y44.6062 
G01 X-95.1687 Y44.5745 
G01 X-95.3313 Y44.5745 
G01 X-95.4908 Y44.6062 
G01 X-95.5620 Y44.6357 
G01 X-96.0227 Y44.6357 
G01 X-96.0647 Y44.6531 
G01 X-96.0969 Y44.6853 
G01 X-96.1143 Y44.7273 
G01 X-96.1143 Y46.0727 
G01 X-96.0969 Y46.1147 
G01 X-96.0755 Y46.1361 
G01 X-96.0755 Y48.6672 
G01 X-96.4438 Y49.0355 
G00 Z2.5400 
G00 X-92.6338 Y16.0155 
G01 Z-0.1778 F254.00 
G01 X-92.6338 Y17.0045 F508.00 
G01 X-91.9345 Y17.7038 
G01 X-91.8953 Y17.7038 
G01 X-91.7489 Y17.8946 
G01 X-91.5546 Y18.0889 
G01 X-91.3367 Y18.2561 
G01 X-91.0988 Y18.3934 
G01 X-90.8450 Y18.4985 
G01 X-90.5797 Y18.5696 
G01 X-90.3073 Y18.6055 
G01 X-82.3389 Y18.6055 
G01 X-82.2976 Y18.6226 
G01 X-82.1283 Y18.6563 
G01 X-80.4317 Y18.6563 
G01 X-80.2624 Y18.6226 
G01 X-80.1029 Y18.5566 
G01 X-79.9594 Y18.4607 
G01 X-79.8373 Y18.3386 
G01 X-79.7414 Y18.1951 
G01 X-79.6754 Y18.0356 
G01 X-79.6417 Y17.8663 
G01 X-79.6417 Y17.6937 
G01 X-79.6754 Y17.5244 
G01 X-79.7414 Y17.3649 
G01 X-79.8373 Y17.2214 
G01 X-79.9594 Y17.0993 
G01 X-80.1029 Y17.0034 
G01 X-80.2624 Y16.9374 
G01 X-80.4317 Y16.9037 
G01 X-82.1283 Y16.9037 
G01 X-82.2976 Y16.9374 
G01 X-82.3389 Y16.9545 
G01 X-90.1700 Y16.9545 
G01 X-90.1991 Y16.9535 
G01 X-90.2462 Y16.9473 
G01 X-90.2462 Y16.0155 
G01 X-90.9455 Y15.3162 
G01 X-91.9345 Y15.3162 
G01 X-92.6338 Y16.0155 
G00 Z2.5400 
G00 X-92.6338 Y19.8255 
G01 Z-0.1778 F254.00 
G01 X-92.6338 Y20.8145 F508.00 
G01 X-91.9345 Y21.5138 
G01 X-90.9455 Y21.5138 
G01 X-90.5772 Y21.1455 
G01 X-82.3389 Y21.1455 
G01 X-82.2976 Y21.1626 
G01 X-82.1283 Y21.1963 
G01 X-80.4317 Y21.1963 
G01 X-80.2624 Y21.1626 
G01 X-80.1029 Y21.0966 
G01 X-79.9594 Y21.0007 
G01 X-79.8373 Y20.8786 
G01 X-79.7414 Y20.7351 
G01 X-79.6754 Y20.5756 
G01 X-79.6417 Y20.4063 
G01 X-79.6417 Y20.2337 
G01 X-79.6754 Y20.0644 
G01 X-79.7414 Y19.9049 
G01 X-79.8373 Y19.7614 
G01 X-79.9594 Y19.6393 
G01 X-80.1029 Y19.5434 
G01 X-80.2624 Y19.4774 
G01 X-80.4317 Y19.4437 
G01 X-82.1283 Y19.4437 
G01 X-82.2976 Y19.4774 
G01 X-82.3389 Y19.4945 
G01 X-90.5772 Y19.4945 
G01 X-90.9455 Y19.1262 
G01 X-91.9345 Y19.1262 
G01 X-92.6338 Y19.8255 
G00 Z2.5400 
G00 X-92.6338 Y23.6355 
G01 Z-0.1778 F254.00 
G01 X-92.6338 Y24.6245 F508.00 
G01 X-91.9345 Y25.3238 
G01 X-90.9455 Y25.3238 
G01 X-90.2462 Y24.6245 
G01 X-90.2462 Y23.6927 
G01 X-90.1991 Y23.6865 
G01 X-90.1700 Y23.6855 
G01 X-82.3389 Y23.6855 
G01 X-82.2976 Y23.7026 
G01 X-82.1283 Y23.7363 
G01 X-80.4317 Y23.7363 
G01 X-80.2624 Y23.7026 
G01 X-80.1029 Y23.6366 
G01 X-79.9594 Y23.5407 
G01 X-79.8373 Y23.4186 
G01 X-79.7414 Y23.2751 
G01 X-79.6754 Y23.1156 
G01 X-79.6417 Y22.9463 
G01 X-79.6417 Y22.7737 
G01 X-79.6754 Y22.6044 
G01 X-79.7414 Y22.4449 
G01 X-79.8373 Y22.3014 
G01 X-79.9594 Y22.1793 
G01 X-80.1029 Y22.0834 
G01 X-80.2624 Y22.0174 
G01 X-80.4317 Y21.9837 
G01 X-82.1283 Y21.9837 
G01 X-82.2976 Y22.0174 
G01 X-82.3389 Y22.0345 
G01 X-90.3073 Y22.0345 
G01 X-90.5797 Y22.0704 
G01 X-90.8450 Y22.1415 
G01 X-91.0988 Y22.2466 
G01 X-91.3367 Y22.3839 
G01 X-91.5546 Y22.5511 
G01 X-91.7489 Y22.7454 
G01 X-91.8953 Y22.9362 
G01 X-91.9345 Y22.9362 
G01 X-92.6338 Y23.6355 
G00 Z2.5400 
G00 X-91.2543 Y70.6227 
G01 Z-0.1778 F254.00 
G01 X-91.2369 Y70.6647 F508.00 
G01 X-91.2047 Y70.6969 
G01 X-91.1627 Y70.7143 
G01 X-89.8173 Y70.7143 
G01 X-89.7753 Y70.6969 
G01 X-89.7431 Y70.6647 
G01 X-89.7257 Y70.6227 
G01 X-89.7257 Y70.1620 
G01 X-89.7255 Y71.1200 
G01 X-89.7274 Y71.1869 
G01 X-89.7430 Y71.3198 
G01 X-89.7738 Y71.4500 
G01 X-89.8196 Y71.5757 
G01 X-89.8796 Y71.6953 
G01 X-89.9532 Y71.8071 
G01 X-90.0392 Y71.9096 
G01 X-90.1365 Y72.0014 
G01 X-90.2438 Y72.0813 
G01 X-90.3597 Y72.1482 
G01 X-90.4825 Y72.2012 
G01 X-90.6107 Y72.2396 
G01 X-90.7424 Y72.2628 
G01 X-90.8760 Y72.2706 
G01 X-91.0096 Y72.2628 
G01 X-91.1413 Y72.2396 
G01 X-91.2695 Y72.2012 
G01 X-91.3924 Y72.1482 
G01 X-91.5083 Y72.0813 
G01 X-91.6156 Y72.0014 
G01 X-91.7129 Y71.9096 
G01 X-91.7989 Y71.8072 
G01 X-91.8725 Y71.6954 
G01 X-91.9325 Y71.5758 
G01 X-91.9783 Y71.4501 
G01 X-92.0092 Y71.3199 
G01 X-92.0247 Y71.1870 
G01 X-92.0247 Y71.0532 
G01 X-92.0092 Y70.9203 
G01 X-91.9784 Y70.7901 
G01 X-91.9508 Y70.7143 
G01 X-91.7173 Y70.7143 
G01 X-91.6753 Y70.6969 
G01 X-91.6431 Y70.6647 
G01 X-91.6257 Y70.6227 
G01 X-91.6257 Y70.1712 
G01 X-91.6135 Y70.1325 
G01 X-91.5962 Y70.0908 
G01 X-91.5891 Y70.0552 
G01 X-91.5782 Y70.0206 
G01 X-91.5733 Y69.9756 
G01 X-91.5645 Y69.9313 
G01 X-91.5645 Y69.8950 
G01 X-91.5606 Y69.8589 
G01 X-91.5645 Y69.8139 
G01 X-91.5645 Y56.0189 
G01 X-91.6000 Y55.6586 
G01 X-91.6706 Y55.3034 
G01 X-91.7758 Y54.9569 
G01 X-91.9143 Y54.6223 
G01 X-92.0850 Y54.3030 
G01 X-92.2862 Y54.0019 
G01 X-92.5159 Y53.7220 
G01 X-92.7720 Y53.4659 
G01 X-93.0519 Y53.2362 
G01 X-93.3530 Y53.0350 
G01 X-93.6723 Y52.8643 
G01 X-94.0069 Y52.7258 
G01 X-94.2496 Y52.6521 
G01 X-94.7555 Y52.1462 
G01 X-95.7445 Y52.1462 
G01 X-96.4438 Y52.8455 
G01 X-96.4438 Y53.8345 
G01 X-95.7445 Y54.5338 
G01 X-94.7555 Y54.5338 
G01 X-94.5233 Y54.3015 
G01 X-94.3801 Y54.3608 
G01 X-94.2041 Y54.4550 
G01 X-94.0380 Y54.5659 
G01 X-93.8837 Y54.6925 
G01 X-93.7425 Y54.8337 
G01 X-93.6159 Y54.9880 
G01 X-93.5050 Y55.1541 
G01 X-93.4108 Y55.3301 
G01 X-93.3344 Y55.5146 
G01 X-93.2765 Y55.7057 
G01 X-93.2375 Y55.9015 
G01 X-93.2179 Y56.1002 
G01 X-93.2155 Y56.2000 
G01 X-93.2155 Y69.5786 
G01 X-93.3066 Y69.7171 
G01 X-93.4530 Y70.0088 
G01 X-93.5646 Y70.3154 
G01 X-93.6398 Y70.6330 
G01 X-93.6777 Y70.9571 
G01 X-93.6776 Y71.2835 
G01 X-93.6397 Y71.6076 
G01 X-93.5644 Y71.9251 
G01 X-93.4528 Y72.2318 
G01 X-93.3063 Y72.5234 
G01 X-93.1269 Y72.7960 
G01 X-92.9172 Y73.0460 
G01 X-92.6798 Y73.2699 
G01 X-92.4180 Y73.4648 
G01 X-92.1354 Y73.6279 
G01 X-91.8357 Y73.7571 
G01 X-91.5231 Y73.8507 
G01 X-91.2017 Y73.9074 
G01 X-90.8759 Y73.9263 
G01 X-90.5501 Y73.9073 
G01 X-90.2288 Y73.8506 
G01 X-89.9161 Y73.7570 
G01 X-89.6165 Y73.6278 
G01 X-89.3339 Y73.4646 
G01 X-89.0721 Y73.2697 
G01 X-88.8348 Y73.0458 
G01 X-88.6250 Y72.7958 
G01 X-88.4457 Y72.5231 
G01 X-88.2993 Y72.2315 
G01 X-88.1876 Y71.9248 
G01 X-88.1124 Y71.6073 
G01 X-88.0745 Y71.2832 
G01 X-88.0745 Y58.4200 
G01 X-88.0722 Y58.3303 
G01 X-88.0534 Y58.1518 
G01 X-88.0161 Y57.9763 
G01 X-87.9606 Y57.8056 
G01 X-87.8876 Y57.6416 
G01 X-87.7979 Y57.4862 
G01 X-87.6924 Y57.3410 
G01 X-87.5723 Y57.2077 
G01 X-87.4390 Y57.0876 
G01 X-87.2938 Y56.9821 
G01 X-87.1384 Y56.8924 
G01 X-86.9744 Y56.8194 
G01 X-86.8037 Y56.7639 
G01 X-86.6282 Y56.7266 
G01 X-86.4497 Y56.7078 
G01 X-86.3600 Y56.7055 
G01 X-78.5636 Y56.7055 
G01 X-78.2128 Y56.6686 
G01 X-77.8678 Y56.5953 
G01 X-77.5323 Y56.4863 
G01 X-77.2100 Y56.3428 
G01 X-76.9045 Y56.1664 
G01 X-76.6191 Y55.9591 
G01 X-76.3570 Y55.7230 
G01 X-76.1209 Y55.4609 
G01 X-75.9136 Y55.1755 
G01 X-75.7372 Y54.8700 
G01 X-75.5937 Y54.5477 
G01 X-75.4847 Y54.2123 
G01 X-75.4748 Y54.1655 
G01 X-73.2155 Y54.1655 
G01 X-73.2155 Y55.9613 
G01 X-73.1838 Y56.1208 
G01 X-73.1215 Y56.2710 
G01 X-73.0312 Y56.4062 
G01 X-72.9905 Y56.4469 
G01 X-72.9579 Y56.4801 
G01 X-72.9162 Y56.5212 
G01 X-72.7810 Y56.6115 
G01 X-72.6308 Y56.6738 
G01 X-72.4713 Y56.7055 
G01 X-72.3087 Y56.7055 
G01 X-72.1492 Y56.6738 
G01 X-71.9990 Y56.6115 
G01 X-71.8638 Y56.5212 
G01 X-71.8231 Y56.4805 
G01 X-71.7899 Y56.4479 
G01 X-71.7488 Y56.4062 
G01 X-71.6585 Y56.2710 
G01 X-71.5962 Y56.1208 
G01 X-71.5645 Y55.9613 
G01 X-71.5645 Y53.2587 
G01 X-71.5962 Y53.0992 
G01 X-71.6585 Y52.9490 
G01 X-71.7488 Y52.8138 
G01 X-71.8638 Y52.6988 
G01 X-71.9990 Y52.6085 
G01 X-72.1492 Y52.5462 
G01 X-72.3087 Y52.5145 
G01 X-75.3745 Y52.5145 
G01 X-75.3745 Y52.2089 
G01 X-75.4100 Y51.8486 
G01 X-75.4806 Y51.4934 
G01 X-75.5858 Y51.1469 
G01 X-75.7243 Y50.8123 
G01 X-75.8950 Y50.4930 
G01 X-76.0962 Y50.1919 
G01 X-76.3259 Y49.9120 
G01 X-76.5820 Y49.6559 
G01 X-76.8619 Y49.4262 
G01 X-77.1630 Y49.2250 
G01 X-77.4823 Y49.0543 
G01 X-77.8169 Y48.9158 
G01 X-78.1634 Y48.8106 
G01 X-78.2957 Y48.7843 
G01 X-78.2957 Y48.7573 
G01 X-78.3131 Y48.7153 
G01 X-78.3453 Y48.6831 
G01 X-78.3873 Y48.6657 
G01 X-79.7327 Y48.6657 
G01 X-79.7747 Y48.6831 
G01 X-79.8069 Y48.7153 
G01 X-79.8243 Y48.7573 
G01 X-79.8243 Y49.2180 
G01 X-79.8538 Y49.2892 
G01 X-79.8855 Y49.4487 
G01 X-79.8855 Y49.6113 
G01 X-79.8538 Y49.7708 
G01 X-79.8243 Y49.8420 
G01 X-79.8243 Y50.3027 
G01 X-79.8069 Y50.3447 
G01 X-79.7747 Y50.3769 
G01 X-79.7327 Y50.3943 
G01 X-78.6771 Y50.3943 
G01 X-78.5657 Y50.4165 
G01 X-78.3746 Y50.4744 
G01 X-78.1901 Y50.5508 
G01 X-78.0141 Y50.6450 
G01 X-77.8480 Y50.7559 
G01 X-77.6937 Y50.8825 
G01 X-77.5525 Y51.0237 
G01 X-77.4259 Y51.1780 
G01 X-77.3150 Y51.3441 
G01 X-77.2208 Y51.5201 
G01 X-77.1444 Y51.7046 
G01 X-77.0865 Y51.8957 
G01 X-77.0475 Y52.0915 
G01 X-77.0279 Y52.2902 
G01 X-77.0255 Y52.3900 
G01 X-77.0255 Y53.3400 
G01 X-77.0278 Y53.4297 
G01 X-77.0466 Y53.6082 
G01 X-77.0839 Y53.7837 
G01 X-77.1394 Y53.9544 
G01 X-77.2124 Y54.1184 
G01 X-77.3021 Y54.2738 
G01 X-77.4076 Y54.4190 
G01 X-77.5277 Y54.5523 
G01 X-77.6610 Y54.6724 
G01 X-77.8062 Y54.7779 
G01 X-77.9616 Y54.8676 
G01 X-78.1256 Y54.9406 
G01 X-78.2963 Y54.9961 
G01 X-78.4718 Y55.0334 
G01 X-78.6503 Y55.0522 
G01 X-78.7400 Y55.0545 
G01 X-86.5364 Y55.0545 
G01 X-86.8872 Y55.0914 
G01 X-87.2322 Y55.1647 
G01 X-87.5677 Y55.2737 
G01 X-87.8900 Y55.4172 
G01 X-88.1955 Y55.5936 
G01 X-88.4809 Y55.8009 
G01 X-88.7430 Y56.0370 
G01 X-88.9791 Y56.2991 
G01 X-89.1864 Y56.5845 
G01 X-89.3628 Y56.8900 
G01 X-89.5063 Y57.2123 
G01 X-89.6153 Y57.5477 
G01 X-89.6886 Y57.8928 
G01 X-89.7255 Y58.2436 
G01 X-89.7255 Y69.5385 
G01 X-89.7257 Y69.0773 
G01 X-89.7431 Y69.0353 
G01 X-89.7753 Y69.0031 
G01 X-89.8173 Y68.9857 
G01 X-89.8245 Y68.9857 
G01 X-89.8245 Y50.0100 
G01 X-89.8206 Y49.7519 
G01 X-89.7894 Y49.2367 
G01 X-89.7272 Y48.7244 
G01 X-89.6342 Y48.2167 
G01 X-89.5107 Y47.7155 
G01 X-89.3571 Y47.2228 
G01 X-89.1741 Y46.7402 
G01 X-88.9623 Y46.2695 
G01 X-88.7224 Y45.8125 
G01 X-88.4554 Y45.3708 
G01 X-88.1622 Y44.9460 
G01 X-87.8439 Y44.5397 
G01 X-87.5016 Y44.1534 
G01 X-87.1366 Y43.7884 
G01 X-86.7503 Y43.4461 
G01 X-86.3440 Y43.1278 
G01 X-85.9192 Y42.8346 
G01 X-85.4775 Y42.5676 
G01 X-85.0205 Y42.3277 
G01 X-84.5498 Y42.1159 
G01 X-84.0672 Y41.9329 
G01 X-83.5745 Y41.7793 
G01 X-83.0733 Y41.6558 
G01 X-82.5656 Y41.5628 
G01 X-82.1490 Y41.5122 
G01 X-82.1283 Y41.5163 
G01 X-80.4317 Y41.5163 
G01 X-80.2624 Y41.4826 
G01 X-80.1029 Y41.4166 
G01 X-79.9594 Y41.3207 
G01 X-79.8373 Y41.1986 
G01 X-79.7414 Y41.0551 
G01 X-79.6754 Y40.8956 
G01 X-79.6417 Y40.7263 
G01 X-79.6417 Y40.5537 
G01 X-79.6754 Y40.3844 
G01 X-79.7414 Y40.2249 
G01 X-79.8373 Y40.0814 
G01 X-79.9594 Y39.9593 
G01 X-80.1029 Y39.8634 
G01 X-80.2624 Y39.7974 
G01 X-80.4317 Y39.7637 
G01 X-82.1283 Y39.7637 
G01 X-82.2976 Y39.7974 
G01 X-82.4571 Y39.8634 
G01 X-82.4920 Y39.8868 
G01 X-82.8148 Y39.9260 
G01 X-83.4208 Y40.0370 
G01 X-84.0191 Y40.1845 
G01 X-84.6073 Y40.3678 
G01 X-85.1834 Y40.5863 
G01 X-85.7453 Y40.8392 
G01 X-86.2909 Y41.1255 
G01 X-86.8182 Y41.4443 
G01 X-87.3252 Y41.7943 
G01 X-87.8103 Y42.1743 
G01 X-88.2715 Y42.5829 
G01 X-88.7071 Y43.0185 
G01 X-89.1157 Y43.4797 
G01 X-89.4957 Y43.9648 
G01 X-89.8457 Y44.4718 
G01 X-90.1645 Y44.9991 
G01 X-90.4508 Y45.5447 
G01 X-90.7037 Y46.1066 
G01 X-90.9222 Y46.6827 
G01 X-91.1055 Y47.2709 
G01 X-91.2530 Y47.8692 
G01 X-91.3640 Y48.4752 
G01 X-91.4383 Y49.0869 
G01 X-91.4755 Y49.7019 
G01 X-91.4755 Y69.7762 
G01 X-91.4456 Y69.9460 
G01 X-91.3866 Y70.1081 
G01 X-91.3004 Y70.2574 
G01 X-91.2543 Y70.3123 
G01 X-91.2543 Y70.6227 
G00 Z2.5400 
G00 X-9.0043 Y37.5266 
G01 Z-0.1778 F254.00 
G01 X-9.0043 Y38.6734 F508.00 
G01 X-8.1934 Y39.4843 
G01 X-7.0466 Y39.4843 
G01 X-6.2357 Y38.6734 
G01 X-6.2357 Y37.5266 
G01 X-6.7945 Y36.9678 
G01 X-6.7945 Y34.7477 
G01 X-6.7772 Y34.7304 
G01 X-6.6750 Y34.5897 
G01 X-6.5960 Y34.4347 
G01 X-6.5423 Y34.2693 
G01 X-6.5151 Y34.0976 
G01 X-6.5151 Y31.9424 
G01 X-6.5423 Y31.7707 
G01 X-6.5960 Y31.6053 
G01 X-6.6750 Y31.4503 
G01 X-6.7772 Y31.3096 
G01 X-6.7945 Y31.2923 
G01 X-6.7945 Y27.1277 
G01 X-6.7772 Y27.1104 
G01 X-6.6750 Y26.9697 
G01 X-6.5960 Y26.8147 
G01 X-6.5423 Y26.6493 
G01 X-6.5151 Y26.4776 
G01 X-6.5151 Y24.3224 
G01 X-6.5423 Y24.1507 
G01 X-6.5960 Y23.9853 
G01 X-6.6750 Y23.8303 
G01 X-6.7772 Y23.6896 
G01 X-6.9002 Y23.5666 
G01 X-7.0409 Y23.4644 
G01 X-7.1959 Y23.3855 
G01 X-7.3613 Y23.3317 
G01 X-7.5330 Y23.3045 
G01 X-7.7070 Y23.3045 
G01 X-7.8787 Y23.3317 
G01 X-8.0441 Y23.3855 
G01 X-8.1991 Y23.4644 
G01 X-8.3398 Y23.5666 
G01 X-8.4628 Y23.6896 
G01 X-8.5650 Y23.8303 
G01 X-8.6439 Y23.9853 
G01 X-8.6977 Y24.1507 
G01 X-8.7249 Y24.3224 
G01 X-8.7249 Y26.4776 
G01 X-8.6977 Y26.6493 
G01 X-8.6439 Y26.8147 
G01 X-8.5650 Y26.9697 
G01 X-8.4628 Y27.1104 
G01 X-8.4455 Y27.1277 
G01 X-8.4455 Y31.2923 
G01 X-8.4628 Y31.3096 
G01 X-8.5650 Y31.4503 
G01 X-8.6439 Y31.6053 
G01 X-8.6977 Y31.7707 
G01 X-8.7249 Y31.9424 
G01 X-8.7249 Y34.0976 
G01 X-8.6977 Y34.2693 
G01 X-8.6439 Y34.4347 
G01 X-8.5650 Y34.5897 
G01 X-8.4628 Y34.7304 
G01 X-8.4455 Y34.7477 
G01 X-8.4455 Y36.9678 
G01 X-9.0043 Y37.5266 
G00 Z2.5400 
G00 X-19.1643 Y37.5266 
G01 Z-0.1778 F254.00 
G01 X-19.1643 Y38.6734 F508.00 
G01 X-18.3534 Y39.4843 
G01 X-17.2066 Y39.4843 
G01 X-16.3957 Y38.6734 
G01 X-16.3957 Y37.5266 
G01 X-16.9545 Y36.9678 
G01 X-16.9545 Y34.7477 
G01 X-16.9372 Y34.7304 
G01 X-16.8350 Y34.5897 
G01 X-16.7561 Y34.4347 
G01 X-16.7023 Y34.2693 
G01 X-16.6751 Y34.0976 
G01 X-16.6751 Y31.9424 
G01 X-16.7023 Y31.7707 
G01 X-16.7561 Y31.6053 
G01 X-16.8350 Y31.4503 
G01 X-16.9372 Y31.3096 
G01 X-16.9545 Y31.2923 
G01 X-16.9545 Y27.1277 
G01 X-16.9372 Y27.1104 
G01 X-16.8350 Y26.9697 
G01 X-16.7561 Y26.8147 
G01 X-16.7023 Y26.6493 
G01 X-16.6751 Y26.4776 
G01 X-16.6751 Y24.3224 
G01 X-16.7023 Y24.1507 
G01 X-16.7561 Y23.9853 
G01 X-16.8350 Y23.8303 
G01 X-16.9372 Y23.6896 
G01 X-17.0602 Y23.5666 
G01 X-17.2009 Y23.4644 
G01 X-17.3559 Y23.3855 
G01 X-17.5213 Y23.3317 
G01 X-17.6930 Y23.3045 
G01 X-17.8670 Y23.3045 
G01 X-18.0387 Y23.3317 
G01 X-18.2041 Y23.3855 
G01 X-18.3591 Y23.4644 
G01 X-18.4998 Y23.5666 
G01 X-18.6228 Y23.6896 
G01 X-18.7250 Y23.8303 
G01 X-18.8039 Y23.9853 
G01 X-18.8577 Y24.1507 
G01 X-18.8849 Y24.3224 
G01 X-18.8849 Y26.4776 
G01 X-18.8577 Y26.6493 
G01 X-18.8039 Y26.8147 
G01 X-18.7250 Y26.9697 
G01 X-18.6228 Y27.1104 
G01 X-18.6055 Y27.1277 
G01 X-18.6055 Y31.2923 
G01 X-18.6228 Y31.3096 
G01 X-18.7250 Y31.4503 
G01 X-18.8039 Y31.6053 
G01 X-18.8577 Y31.7707 
G01 X-18.8849 Y31.9424 
G01 X-18.8849 Y34.0976 
G01 X-18.8577 Y34.2693 
G01 X-18.8039 Y34.4347 
G01 X-18.7250 Y34.5897 
G01 X-18.6228 Y34.7304 
G01 X-18.6055 Y34.7477 
G01 X-18.6055 Y36.9678 
G01 X-19.1643 Y37.5266 
G00 Z2.5400 
G00 X-9.0043 Y18.4766 
G01 Z-0.1778 F254.00 
G01 X-9.0043 Y19.6234 F508.00 
G01 X-8.1934 Y20.4343 
G01 X-7.0466 Y20.4343 
G01 X-6.2357 Y19.6234 
G01 X-6.2357 Y18.4766 
G01 X-6.7945 Y17.9178 
G01 X-6.7945 Y15.6977 
G01 X-6.7772 Y15.6804 
G01 X-6.6750 Y15.5397 
G01 X-6.5960 Y15.3847 
G01 X-6.5423 Y15.2193 
G01 X-6.5151 Y15.0476 
G01 X-6.5151 Y12.8924 
G01 X-6.5423 Y12.7207 
G01 X-6.5960 Y12.5553 
G01 X-6.6750 Y12.4003 
G01 X-6.7772 Y12.2596 
G01 X-6.7945 Y12.2423 
G01 X-6.7945 Y8.0777 
G01 X-6.7772 Y8.0604 
G01 X-6.6750 Y7.9197 
G01 X-6.5960 Y7.7647 
G01 X-6.5423 Y7.5993 
G01 X-6.5151 Y7.4276 
G01 X-6.5151 Y5.2724 
G01 X-6.5423 Y5.1007 
G01 X-6.5960 Y4.9353 
G01 X-6.6750 Y4.7803 
G01 X-6.7772 Y4.6396 
G01 X-6.9002 Y4.5166 
G01 X-7.0409 Y4.4144 
G01 X-7.1959 Y4.3354 
G01 X-7.3613 Y4.2817 
G01 X-7.5330 Y4.2545 
G01 X-7.7070 Y4.2545 
G01 X-7.8787 Y4.2817 
G01 X-8.0441 Y4.3354 
G01 X-8.1991 Y4.4144 
G01 X-8.3398 Y4.5166 
G01 X-8.4628 Y4.6396 
G01 X-8.5650 Y4.7803 
G01 X-8.6439 Y4.9353 
G01 X-8.6977 Y5.1007 
G01 X-8.7249 Y5.2724 
G01 X-8.7249 Y7.4276 
G01 X-8.6977 Y7.5993 
G01 X-8.6439 Y7.7647 
G01 X-8.5650 Y7.9197 
G01 X-8.4628 Y8.0604 
G01 X-8.4455 Y8.0777 
G01 X-8.4455 Y12.2423 
G01 X-8.4628 Y12.2596 
G01 X-8.5650 Y12.4003 
G01 X-8.6439 Y12.5553 
G01 X-8.6977 Y12.7207 
G01 X-8.7249 Y12.8924 
G01 X-8.7249 Y15.0476 
G01 X-8.6977 Y15.2193 
G01 X-8.6439 Y15.3847 
G01 X-8.5650 Y15.5397 
G01 X-8.4628 Y15.6804 
G01 X-8.4455 Y15.6977 
G01 X-8.4455 Y17.9178 
G01 X-9.0043 Y18.4766 
G00 Z2.5400 
G00 X-14.0843 Y18.4766 
G01 Z-0.1778 F254.00 
G01 X-14.0843 Y19.6234 F508.00 
G01 X-13.2734 Y20.4343 
G01 X-12.1266 Y20.4343 
G01 X-11.3157 Y19.6234 
G01 X-11.3157 Y18.4766 
G01 X-11.8745 Y17.9178 
G01 X-11.8745 Y15.6977 
G01 X-11.8572 Y15.6804 
G01 X-11.7550 Y15.5397 
G01 X-11.6761 Y15.3847 
G01 X-11.6223 Y15.2193 
G01 X-11.5951 Y15.0476 
G01 X-11.5951 Y12.8924 
G01 X-11.6223 Y12.7207 
G01 X-11.6761 Y12.5553 
G01 X-11.7550 Y12.4003 
G01 X-11.8572 Y12.2596 
G01 X-11.8745 Y12.2423 
G01 X-11.8745 Y8.0777 
G01 X-11.8572 Y8.0604 
G01 X-11.7550 Y7.9197 
G01 X-11.6761 Y7.7647 
G01 X-11.6223 Y7.5993 
G01 X-11.5951 Y7.4276 
G01 X-11.5951 Y5.2724 
G01 X-11.6223 Y5.1007 
G01 X-11.6761 Y4.9353 
G01 X-11.7550 Y4.7803 
G01 X-11.8572 Y4.6396 
G01 X-11.9802 Y4.5166 
G01 X-12.1209 Y4.4144 
G01 X-12.2759 Y4.3354 
G01 X-12.4413 Y4.2817 
G01 X-12.6130 Y4.2545 
G01 X-12.7870 Y4.2545 
G01 X-12.9587 Y4.2817 
G01 X-13.1241 Y4.3354 
G01 X-13.2791 Y4.4144 
G01 X-13.4198 Y4.5166 
G01 X-13.5428 Y4.6396 
G01 X-13.6450 Y4.7803 
G01 X-13.7239 Y4.9353 
G01 X-13.7777 Y5.1007 
G01 X-13.8049 Y5.2724 
G01 X-13.8049 Y7.4276 
G01 X-13.7777 Y7.5993 
G01 X-13.7239 Y7.7647 
G01 X-13.6450 Y7.9197 
G01 X-13.5428 Y8.0604 
G01 X-13.5255 Y8.0777 
G01 X-13.5255 Y12.2423 
G01 X-13.5428 Y12.2596 
G01 X-13.6450 Y12.4003 
G01 X-13.7239 Y12.5553 
G01 X-13.7777 Y12.7207 
G01 X-13.8049 Y12.8924 
G01 X-13.8049 Y15.0476 
G01 X-13.7777 Y15.2193 
G01 X-13.7239 Y15.3847 
G01 X-13.6450 Y15.5397 
G01 X-13.5428 Y15.6804 
G01 X-13.5255 Y15.6977 
G01 X-13.5255 Y17.9178 
G01 X-14.0843 Y18.4766 
G00 Z2.5400 
G00 X-11.7946 Y51.0957 
G01 Z-0.1778 F254.00 
G01 X-11.9254 Y51.0957 F508.00 
G01 X-12.0538 Y51.1212 
G01 X-12.1747 Y51.1713 
G01 X-12.2835 Y51.2440 
G01 X-12.3760 Y51.3365 
G01 X-12.4487 Y51.4453 
G01 X-12.4988 Y51.5662 
G01 X-12.5243 Y51.6946 
G01 X-12.5243 Y52.7254 
G01 X-12.4988 Y52.8538 
G01 X-12.4487 Y52.9747 
G01 X-12.3760 Y53.0835 
G01 X-12.2835 Y53.1760 
G01 X-12.1747 Y53.2487 
G01 X-12.0538 Y53.2988 
G01 X-11.9254 Y53.3243 
G01 X-11.7946 Y53.3243 
G01 X-11.6662 Y53.2988 
G01 X-11.5453 Y53.2487 
G01 X-11.4365 Y53.1760 
G01 X-11.3440 Y53.0835 
G01 X-11.2713 Y52.9747 
G01 X-11.2212 Y52.8538 
G01 X-11.1957 Y52.7254 
G01 X-11.1957 Y51.6946 
G01 X-11.2212 Y51.5662 
G01 X-11.2713 Y51.4453 
G01 X-11.3440 Y51.3365 
G01 X-11.4365 Y51.2440 
G01 X-11.5453 Y51.1713 
G01 X-11.6662 Y51.1212 
G01 X-11.7946 Y51.0957 
G00 Z2.5400 
G00 X-8.3946 Y55.8957 
G01 Z-0.1778 F254.00 
G01 X-8.5254 Y55.8957 F508.00 
G01 X-8.6538 Y55.9212 
G01 X-8.7747 Y55.9713 
G01 X-8.8835 Y56.0440 
G01 X-8.9760 Y56.1365 
G01 X-9.0487 Y56.2453 
G01 X-9.0988 Y56.3662 
G01 X-9.1243 Y56.4946 
G01 X-9.1243 Y56.5183 
G01 X-9.1915 Y56.6190 
G01 X-9.2538 Y56.7692 
G01 X-9.2855 Y56.9287 
G01 X-9.2855 Y57.0913 
G01 X-9.2538 Y57.2508 
G01 X-9.1915 Y57.4010 
G01 X-9.1243 Y57.5017 
G01 X-9.1243 Y57.5254 
G01 X-9.0988 Y57.6538 
G01 X-9.0487 Y57.7747 
G01 X-8.9760 Y57.8835 
G01 X-8.8835 Y57.9760 
G01 X-8.7747 Y58.0487 
G01 X-8.6538 Y58.0988 
G01 X-8.5254 Y58.1243 
G01 X-8.3946 Y58.1243 
G01 X-8.2662 Y58.0988 
G01 X-8.1453 Y58.0487 
G01 X-8.0365 Y57.9760 
G01 X-7.9499 Y57.8894 
G01 X-7.8751 Y57.9034 
G01 X-7.6482 Y57.9679 
G01 X-7.4282 Y58.0532 
G01 X-7.2170 Y58.1583 
G01 X-7.0164 Y58.2825 
G01 X-6.8281 Y58.4247 
G01 X-6.6537 Y58.5837 
G01 X-6.4947 Y58.7581 
G01 X-6.3525 Y58.9464 
G01 X-6.2283 Y59.1470 
G01 X-6.1232 Y59.3582 
G01 X-6.0379 Y59.5782 
G01 X-5.9733 Y59.8051 
G01 X-5.9300 Y60.0371 
G01 X-5.9228 Y60.1145 
G01 X-6.2738 Y60.4655 
G01 X-6.2738 Y61.4545 
G01 X-6.0608 Y61.6675 
G01 X-6.0924 Y61.7384 
G01 X-6.1821 Y61.8938 
G01 X-6.2876 Y62.0390 
G01 X-6.4077 Y62.1723 
G01 X-6.5410 Y62.2924 
G01 X-6.6862 Y62.3979 
G01 X-6.8416 Y62.4876 
G01 X-7.0056 Y62.5606 
G01 X-7.1763 Y62.6161 
G01 X-7.3518 Y62.6534 
G01 X-7.5303 Y62.6722 
G01 X-7.6200 Y62.6745 
G01 X-13.5539 Y62.6745 
G01 X-13.5753 Y62.6531 
G01 X-13.6173 Y62.6357 
G01 X-14.9627 Y62.6357 
G01 X-15.0047 Y62.6531 
G01 X-15.0369 Y62.6853 
G01 X-15.0543 Y62.7273 
G01 X-15.0543 Y63.1880 
G01 X-15.0838 Y63.2592 
G01 X-15.1155 Y63.4187 
G01 X-15.1155 Y63.5813 
G01 X-15.0838 Y63.7408 
G01 X-15.0543 Y63.8120 
G01 X-15.0543 Y64.2727 
G01 X-15.0369 Y64.3147 
G01 X-15.0047 Y64.3469 
G01 X-14.9627 Y64.3643 
G01 X-13.6173 Y64.3643 
G01 X-13.5753 Y64.3469 
G01 X-13.5539 Y64.3255 
G01 X-7.4436 Y64.3255 
G01 X-7.0928 Y64.2886 
G01 X-6.7477 Y64.2153 
G01 X-6.4123 Y64.1063 
G01 X-6.0900 Y63.9628 
G01 X-5.7845 Y63.7864 
G01 X-5.4991 Y63.5791 
G01 X-5.2370 Y63.3430 
G01 X-5.0009 Y63.0809 
G01 X-4.7936 Y62.7955 
G01 X-4.6172 Y62.4900 
G01 X-4.4737 Y62.1677 
G01 X-4.4132 Y61.9815 
G01 X-3.8862 Y61.4545 
G01 X-3.8862 Y60.4655 
G01 X-4.2645 Y60.0872 
G01 X-4.2904 Y59.8084 
G01 X-4.3618 Y59.4261 
G01 X-4.4683 Y59.0521 
G01 X-4.6087 Y58.6895 
G01 X-4.7821 Y58.3414 
G01 X-4.9868 Y58.0108 
G01 X-5.2211 Y57.7005 
G01 X-5.4831 Y57.4131 
G01 X-5.7705 Y57.1511 
G01 X-6.0808 Y56.9168 
G01 X-6.4114 Y56.7121 
G01 X-6.7595 Y56.5387 
G01 X-7.1221 Y56.3983 
G01 X-7.4961 Y56.2918 
G01 X-7.8784 Y56.2204 
G01 X-7.8886 Y56.2194 
G01 X-7.9440 Y56.1365 
G01 X-8.0365 Y56.0440 
G01 X-8.1453 Y55.9713 
G01 X-8.2662 Y55.9212 
G01 X-8.3946 Y55.8957 
G00 Z2.5400 
G00 X-21.4043 Y62.7273 
G01 Z-0.1778 F254.00 
G01 X-21.4043 Y63.1880 F508.00 
G01 X-21.4338 Y63.2592 
G01 X-21.4655 Y63.4187 
G01 X-21.4655 Y63.5813 
G01 X-21.4338 Y63.7408 
G01 X-21.4043 Y63.8120 
G01 X-21.4043 Y64.2727 
G01 X-21.3869 Y64.3147 
G01 X-21.3547 Y64.3469 
G01 X-21.3127 Y64.3643 
G01 X-19.9673 Y64.3643 
G01 X-19.9253 Y64.3469 
G01 X-19.9039 Y64.3255 
G01 X-16.9261 Y64.3255 
G01 X-16.9047 Y64.3469 
G01 X-16.8627 Y64.3643 
G01 X-15.5173 Y64.3643 
G01 X-15.4753 Y64.3469 
G01 X-15.4431 Y64.3147 
G01 X-15.4257 Y64.2727 
G01 X-15.4257 Y62.7273 
G01 X-15.4431 Y62.6853 
G01 X-15.4753 Y62.6531 
G01 X-15.5173 Y62.6357 
G01 X-15.6845 Y62.6357 
G01 X-15.6845 Y60.9600 
G01 X-15.6835 Y60.9309 
G01 X-15.6760 Y60.8733 
G01 X-15.6609 Y60.8171 
G01 X-15.6387 Y60.7634 
G01 X-15.6096 Y60.7130 
G01 X-15.5742 Y60.6669 
G01 X-15.5331 Y60.6258 
G01 X-15.4870 Y60.5904 
G01 X-15.4366 Y60.5613 
G01 X-15.3829 Y60.5391 
G01 X-15.3267 Y60.5240 
G01 X-15.2691 Y60.5165 
G01 X-15.2400 Y60.5155 
G01 X-12.6563 Y60.5155 
G01 X-12.2909 Y60.4771 
G01 X-11.9315 Y60.4007 
G01 X-11.5820 Y60.2872 
G01 X-11.2464 Y60.1377 
G01 X-10.9282 Y59.9540 
G01 X-10.6309 Y59.7380 
G01 X-10.3578 Y59.4922 
G01 X-10.1120 Y59.2191 
G01 X-9.8960 Y58.9219 
G01 X-9.7123 Y58.6036 
G01 X-9.5628 Y58.2680 
G01 X-9.4493 Y57.9185 
G01 X-9.3729 Y57.5591 
G01 X-9.3345 Y57.1937 
G01 X-9.3345 Y56.9287 
G01 X-9.3662 Y56.7692 
G01 X-9.4284 Y56.6190 
G01 X-9.4957 Y56.5183 
G01 X-9.4957 Y56.4946 
G01 X-9.5212 Y56.3662 
G01 X-9.5713 Y56.2453 
G01 X-9.6440 Y56.1365 
G01 X-9.7365 Y56.0440 
G01 X-9.8453 Y55.9713 
G01 X-9.9662 Y55.9212 
G01 X-10.0946 Y55.8957 
G01 X-10.2254 Y55.8957 
G01 X-10.3538 Y55.9212 
G01 X-10.4747 Y55.9713 
G01 X-10.5835 Y56.0440 
G01 X-10.6760 Y56.1365 
G01 X-10.7487 Y56.2453 
G01 X-10.7988 Y56.3662 
G01 X-10.8243 Y56.4946 
G01 X-10.8243 Y56.5183 
G01 X-10.8915 Y56.6190 
G01 X-10.9538 Y56.7692 
G01 X-10.9855 Y56.9287 
G01 X-10.9855 Y57.0100 
G01 X-10.9880 Y57.1071 
G01 X-11.0083 Y57.3001 
G01 X-11.0487 Y57.4900 
G01 X-11.1087 Y57.6746 
G01 X-11.1876 Y57.8519 
G01 X-11.2847 Y58.0200 
G01 X-11.3988 Y58.1771 
G01 X-11.5287 Y58.3213 
G01 X-11.6729 Y58.4512 
G01 X-11.8300 Y58.5653 
G01 X-11.9981 Y58.6624 
G01 X-12.1754 Y58.7413 
G01 X-12.3600 Y58.8013 
G01 X-12.5499 Y58.8417 
G01 X-12.7429 Y58.8620 
G01 X-12.8400 Y58.8645 
G01 X-15.2545 Y58.8645 
G01 X-15.2545 Y56.9287 
G01 X-15.2862 Y56.7692 
G01 X-15.3485 Y56.6190 
G01 X-15.4157 Y56.5183 
G01 X-15.4157 Y56.4946 
G01 X-15.4412 Y56.3662 
G01 X-15.4913 Y56.2453 
G01 X-15.5640 Y56.1365 
G01 X-15.6565 Y56.0440 
G01 X-15.7653 Y55.9713 
G01 X-15.8862 Y55.9212 
G01 X-16.0146 Y55.8957 
G01 X-16.1454 Y55.8957 
G01 X-16.2738 Y55.9212 
G01 X-16.3947 Y55.9713 
G01 X-16.5035 Y56.0440 
G01 X-16.5960 Y56.1365 
G01 X-16.6687 Y56.2453 
G01 X-16.7188 Y56.3662 
G01 X-16.7443 Y56.4946 
G01 X-16.7443 Y56.5183 
G01 X-16.8115 Y56.6190 
G01 X-16.8738 Y56.7692 
G01 X-16.9055 Y56.9287 
G01 X-16.9055 Y59.6883 
G01 X-16.9861 Y59.7933 
G01 X-17.1234 Y60.0312 
G01 X-17.2285 Y60.2850 
G01 X-17.2996 Y60.5503 
G01 X-17.3355 Y60.8227 
G01 X-17.3355 Y62.6745 
G01 X-19.9039 Y62.6745 
G01 X-19.9253 Y62.6531 
G01 X-19.9673 Y62.6357 
G01 X-21.3127 Y62.6357 
G01 X-21.3547 Y62.6531 
G01 X-21.3869 Y62.6853 
G01 X-21.4043 Y62.7273 
G00 Z2.5400 
G00 X-19.4146 Y51.0957 
G01 Z-0.1778 F254.00 
G01 X-19.5454 Y51.0957 F508.00 
G01 X-19.6738 Y51.1212 
G01 X-19.7947 Y51.1713 
G01 X-19.9035 Y51.2440 
G01 X-19.9960 Y51.3365 
G01 X-20.0687 Y51.4453 
G01 X-20.1188 Y51.5662 
G01 X-20.1443 Y51.6946 
G01 X-20.1443 Y52.7254 
G01 X-20.1188 Y52.8538 
G01 X-20.0687 Y52.9747 
G01 X-19.9960 Y53.0835 
G01 X-19.9035 Y53.1760 
G01 X-19.7947 Y53.2487 
G01 X-19.6738 Y53.2988 
G01 X-19.5454 Y53.3243 
G01 X-19.4146 Y53.3243 
G01 X-19.2862 Y53.2988 
G01 X-19.1653 Y53.2487 
G01 X-19.0565 Y53.1760 
G01 X-18.9640 Y53.0835 
G01 X-18.8913 Y52.9747 
G01 X-18.8412 Y52.8538 
G01 X-18.8157 Y52.7254 
G01 X-18.8157 Y51.6946 
G01 X-18.8412 Y51.5662 
G01 X-18.8913 Y51.4453 
G01 X-18.9640 Y51.3365 
G01 X-19.0565 Y51.2440 
G01 X-19.1653 Y51.1713 
G01 X-19.2862 Y51.1212 
G01 X-19.4146 Y51.0957 
G00 Z2.5400 
G00 X-17.7146 Y55.8957 
G01 Z-0.1778 F254.00 
G01 X-17.8454 Y55.8957 F508.00 
G01 X-17.9738 Y55.9212 
G01 X-18.0947 Y55.9713 
G01 X-18.2035 Y56.0440 
G01 X-18.2960 Y56.1365 
G01 X-18.3687 Y56.2453 
G01 X-18.4188 Y56.3662 
G01 X-18.4443 Y56.4946 
G01 X-18.4443 Y56.5183 
G01 X-18.5115 Y56.6190 
G01 X-18.5738 Y56.7692 
G01 X-18.6055 Y56.9287 
G01 X-18.6055 Y57.0100 
G01 X-18.6080 Y57.1071 
G01 X-18.6283 Y57.3001 
G01 X-18.6687 Y57.4900 
G01 X-18.7287 Y57.6746 
G01 X-18.8076 Y57.8519 
G01 X-18.9047 Y58.0200 
G01 X-19.0188 Y58.1771 
G01 X-19.1487 Y58.3213 
G01 X-19.2929 Y58.4512 
G01 X-19.4500 Y58.5653 
G01 X-19.6181 Y58.6624 
G01 X-19.7954 Y58.7413 
G01 X-19.9800 Y58.8013 
G01 X-20.1699 Y58.8417 
G01 X-20.3629 Y58.8620 
G01 X-20.4600 Y58.8645 
G01 X-22.8745 Y58.8645 
G01 X-22.8745 Y56.9287 
G01 X-22.9062 Y56.7692 
G01 X-22.9685 Y56.6190 
G01 X-23.0357 Y56.5183 
G01 X-23.0357 Y56.4946 
G01 X-23.0612 Y56.3662 
G01 X-23.1113 Y56.2453 
G01 X-23.1840 Y56.1365 
G01 X-23.2765 Y56.0440 
G01 X-23.3853 Y55.9713 
G01 X-23.5062 Y55.9212 
G01 X-23.6346 Y55.8957 
G01 X-23.7654 Y55.8957 
G01 X-23.8938 Y55.9212 
G01 X-24.0147 Y55.9713 
G01 X-24.1235 Y56.0440 
G01 X-24.2160 Y56.1365 
G01 X-24.2887 Y56.2453 
G01 X-24.3388 Y56.3662 
G01 X-24.3643 Y56.4946 
G01 X-24.3643 Y56.5183 
G01 X-24.4315 Y56.6190 
G01 X-24.4938 Y56.7692 
G01 X-24.5255 Y56.9287 
G01 X-24.5255 Y62.6745 
G01 X-27.5239 Y62.6745 
G01 X-27.5453 Y62.6531 
G01 X-27.5873 Y62.6357 
G01 X-28.9327 Y62.6357 
G01 X-28.9747 Y62.6531 
G01 X-29.0069 Y62.6853 
G01 X-29.0243 Y62.7273 
G01 X-29.0243 Y63.1880 
G01 X-29.0538 Y63.2592 
G01 X-29.0855 Y63.4187 
G01 X-29.0855 Y63.5813 
G01 X-29.0538 Y63.7408 
G01 X-29.0243 Y63.8120 
G01 X-29.0243 Y64.2727 
G01 X-29.0069 Y64.3147 
G01 X-28.9747 Y64.3469 
G01 X-28.9327 Y64.3643 
G01 X-27.5873 Y64.3643 
G01 X-27.5453 Y64.3469 
G01 X-27.5239 Y64.3255 
G01 X-23.2761 Y64.3255 
G01 X-23.2547 Y64.3469 
G01 X-23.2127 Y64.3643 
G01 X-21.8673 Y64.3643 
G01 X-21.8253 Y64.3469 
G01 X-21.7931 Y64.3147 
G01 X-21.7757 Y64.2727 
G01 X-21.7757 Y63.8120 
G01 X-21.7462 Y63.7408 
G01 X-21.7145 Y63.5813 
G01 X-21.7145 Y63.4187 
G01 X-21.7462 Y63.2592 
G01 X-21.7757 Y63.1880 
G01 X-21.7757 Y62.7273 
G01 X-21.7931 Y62.6853 
G01 X-21.8253 Y62.6531 
G01 X-21.8673 Y62.6357 
G01 X-22.8745 Y62.6357 
G01 X-22.8745 Y60.5155 
G01 X-20.2763 Y60.5155 
G01 X-19.9109 Y60.4771 
G01 X-19.5515 Y60.4007 
G01 X-19.2020 Y60.2872 
G01 X-18.8664 Y60.1377 
G01 X-18.5481 Y59.9540 
G01 X-18.2509 Y59.7380 
G01 X-17.9778 Y59.4922 
G01 X-17.7320 Y59.2191 
G01 X-17.5160 Y58.9219 
G01 X-17.3323 Y58.6036 
G01 X-17.1828 Y58.2680 
G01 X-17.0693 Y57.9185 
G01 X-16.9929 Y57.5591 
G01 X-16.9545 Y57.1937 
G01 X-16.9545 Y56.9287 
G01 X-16.9862 Y56.7692 
G01 X-17.0485 Y56.6190 
G01 X-17.1157 Y56.5183 
G01 X-17.1157 Y56.4946 
G01 X-17.1412 Y56.3662 
G01 X-17.1913 Y56.2453 
G01 X-17.2640 Y56.1365 
G01 X-17.3565 Y56.0440 
G01 X-17.4653 Y55.9713 
G01 X-17.5862 Y55.9212 
G01 X-17.7146 Y55.8957 
G00 Z2.5400 
G00 X-27.0346 Y51.0957 
G01 Z-0.1778 F254.00 
G01 X-27.1654 Y51.0957 F508.00 
G01 X-27.2938 Y51.1212 
G01 X-27.4147 Y51.1713 
G01 X-27.5235 Y51.2440 
G01 X-27.6160 Y51.3365 
G01 X-27.6887 Y51.4453 
G01 X-27.7388 Y51.5662 
G01 X-27.7643 Y51.6946 
G01 X-27.7643 Y52.7254 
G01 X-27.7388 Y52.8538 
G01 X-27.6887 Y52.9747 
G01 X-27.6160 Y53.0835 
G01 X-27.5235 Y53.1760 
G01 X-27.4147 Y53.2487 
G01 X-27.2938 Y53.2988 
G01 X-27.1654 Y53.3243 
G01 X-27.0346 Y53.3243 
G01 X-26.9062 Y53.2988 
G01 X-26.7853 Y53.2487 
G01 X-26.6765 Y53.1760 
G01 X-26.5840 Y53.0835 
G01 X-26.5113 Y52.9747 
G01 X-26.4612 Y52.8538 
G01 X-26.4357 Y52.7254 
G01 X-26.4357 Y51.6946 
G01 X-26.4612 Y51.5662 
G01 X-26.5113 Y51.4453 
G01 X-26.5840 Y51.3365 
G01 X-26.6765 Y51.2440 
G01 X-26.7853 Y51.1713 
G01 X-26.9062 Y51.1212 
G01 X-27.0346 Y51.0957 
G00 Z2.5400 
G00 X-25.3346 Y55.8957 
G01 Z-0.1778 F254.00 
G01 X-25.4654 Y55.8957 F508.00 
G01 X-25.5938 Y55.9212 
G01 X-25.7147 Y55.9713 
G01 X-25.8235 Y56.0440 
G01 X-25.9160 Y56.1365 
G01 X-25.9887 Y56.2453 
G01 X-26.0388 Y56.3662 
G01 X-26.0643 Y56.4946 
G01 X-26.0643 Y56.5183 
G01 X-26.1315 Y56.6190 
G01 X-26.1938 Y56.7692 
G01 X-26.2255 Y56.9287 
G01 X-26.2255 Y57.1500 
G01 X-26.2278 Y57.2397 
G01 X-26.2466 Y57.4182 
G01 X-26.2839 Y57.5937 
G01 X-26.3394 Y57.7644 
G01 X-26.4124 Y57.9284 
G01 X-26.5021 Y58.0838 
G01 X-26.6076 Y58.2290 
G01 X-26.7277 Y58.3623 
G01 X-26.8610 Y58.4824 
G01 X-27.0062 Y58.5879 
G01 X-27.1616 Y58.6776 
G01 X-27.3256 Y58.7506 
G01 X-27.4963 Y58.8061 
G01 X-27.6718 Y58.8434 
G01 X-27.8503 Y58.8621 
G01 X-27.9400 Y58.8645 
G01 X-28.1110 Y58.8645 
G01 X-28.4509 Y58.9028 
G01 X-28.7844 Y58.9789 
G01 X-29.1073 Y59.0919 
G01 X-29.4155 Y59.2403 
G01 X-29.7051 Y59.4223 
G01 X-29.9726 Y59.6356 
G01 X-30.2144 Y59.8774 
G01 X-30.4277 Y60.1449 
G01 X-30.6097 Y60.4345 
G01 X-30.7581 Y60.7427 
G01 X-30.8711 Y61.0656 
G01 X-30.9472 Y61.3991 
G01 X-30.9855 Y61.7390 
G01 X-30.9855 Y62.6745 
G01 X-33.4272 Y62.6745 
G01 X-33.7955 Y62.3062 
G01 X-34.7845 Y62.3062 
G01 X-35.4838 Y63.0055 
G01 X-35.4838 Y63.9945 
G01 X-34.7845 Y64.6938 
G01 X-33.7955 Y64.6938 
G01 X-33.4272 Y64.3255 
G01 X-30.8961 Y64.3255 
G01 X-30.8747 Y64.3469 
G01 X-30.8327 Y64.3643 
G01 X-29.4873 Y64.3643 
G01 X-29.4453 Y64.3469 
G01 X-29.4131 Y64.3147 
G01 X-29.3957 Y64.2727 
G01 X-29.3957 Y63.8120 
G01 X-29.3662 Y63.7408 
G01 X-29.3345 Y63.5813 
G01 X-29.3345 Y61.9100 
G01 X-29.3323 Y61.8318 
G01 X-29.3148 Y61.6764 
G01 X-29.2800 Y61.5240 
G01 X-29.2284 Y61.3763 
G01 X-29.1605 Y61.2355 
G01 X-29.0773 Y61.1030 
G01 X-28.9798 Y60.9808 
G01 X-28.8692 Y60.8702 
G01 X-28.7470 Y60.7727 
G01 X-28.6145 Y60.6895 
G01 X-28.4737 Y60.6216 
G01 X-28.3260 Y60.5700 
G01 X-28.1736 Y60.5352 
G01 X-28.0182 Y60.5177 
G01 X-27.9400 Y60.5155 
G01 X-27.7636 Y60.5155 
G01 X-27.4128 Y60.4786 
G01 X-27.0678 Y60.4053 
G01 X-26.7323 Y60.2963 
G01 X-26.4100 Y60.1528 
G01 X-26.1045 Y59.9764 
G01 X-25.8191 Y59.7691 
G01 X-25.5570 Y59.5330 
G01 X-25.3209 Y59.2709 
G01 X-25.1136 Y58.9855 
G01 X-24.9372 Y58.6800 
G01 X-24.7937 Y58.3577 
G01 X-24.6847 Y58.0222 
G01 X-24.6114 Y57.6772 
G01 X-24.5745 Y57.3264 
G01 X-24.5745 Y56.9287 
G01 X-24.6062 Y56.7692 
G01 X-24.6684 Y56.6190 
G01 X-24.7357 Y56.5183 
G01 X-24.7357 Y56.4946 
G01 X-24.7612 Y56.3662 
G01 X-24.8113 Y56.2453 
G01 X-24.8840 Y56.1365 
G01 X-24.9765 Y56.0440 
G01 X-25.0853 Y55.9713 
G01 X-25.2062 Y55.9212 
G01 X-25.3346 Y55.8957 
G00 Z2.5400 
G00 X-58.6057 Y66.5373 
G01 Z-0.1778 F254.00 
G01 X-58.6231 Y66.4953 F508.00 
G01 X-58.6553 Y66.4631 
G01 X-58.6973 Y66.4457 
G01 X-60.0427 Y66.4457 
G01 X-60.0847 Y66.4631 
G01 X-60.1169 Y66.4953 
G01 X-60.1343 Y66.5373 
G01 X-60.1343 Y66.9980 
G01 X-60.1638 Y67.0692 
G01 X-60.1955 Y67.2287 
G01 X-60.1955 Y73.7413 
G01 X-60.1638 Y73.9008 
G01 X-60.1343 Y73.9720 
G01 X-60.1343 Y74.4327 
G01 X-60.1169 Y74.4747 
G01 X-60.0847 Y74.5069 
G01 X-60.0427 Y74.5243 
G01 X-58.6973 Y74.5243 
G01 X-58.6553 Y74.5069 
G01 X-58.6231 Y74.4747 
G01 X-58.6057 Y74.4327 
G01 X-58.6057 Y73.9720 
G01 X-58.5762 Y73.9008 
G01 X-58.5445 Y73.7413 
G01 X-58.5445 Y70.6755 
G01 X-56.2219 Y70.6755 
G01 X-54.4021 Y72.4954 
G01 X-54.4195 Y72.5831 
G01 X-54.4195 Y72.7557 
G01 X-54.3858 Y72.9250 
G01 X-54.3198 Y73.0845 
G01 X-54.2239 Y73.2280 
G01 X-54.1018 Y73.3501 
G01 X-53.9583 Y73.4460 
G01 X-53.7988 Y73.5120 
G01 X-53.6295 Y73.5457 
G01 X-51.9329 Y73.5457 
G01 X-51.7636 Y73.5120 
G01 X-51.7223 Y73.4949 
G01 X-47.3377 Y73.4949 
G01 X-47.2964 Y73.5120 
G01 X-47.1271 Y73.5457 
G01 X-45.4305 Y73.5457 
G01 X-45.2612 Y73.5120 
G01 X-45.1017 Y73.4460 
G01 X-44.9582 Y73.3501 
G01 X-44.8361 Y73.2280 
G01 X-44.7402 Y73.0845 
G01 X-44.6742 Y72.9250 
G01 X-44.6405 Y72.7557 
G01 X-44.6405 Y72.5831 
G01 X-44.6742 Y72.4138 
G01 X-44.7402 Y72.2543 
G01 X-44.8361 Y72.1108 
G01 X-44.9582 Y71.9887 
G01 X-45.1017 Y71.8928 
G01 X-45.2612 Y71.8268 
G01 X-45.4305 Y71.7931 
G01 X-47.1271 Y71.7931 
G01 X-47.2964 Y71.8268 
G01 X-47.3377 Y71.8439 
G01 X-51.7223 Y71.8439 
G01 X-51.7636 Y71.8268 
G01 X-51.9329 Y71.7931 
G01 X-52.7695 Y71.7931 
G01 X-55.2388 Y69.3238 
G01 X-55.3538 Y69.2088 
G01 X-55.4890 Y69.1185 
G01 X-55.6392 Y69.0562 
G01 X-55.7987 Y69.0245 
G01 X-58.5445 Y69.0245 
G01 X-58.5445 Y67.2287 
G01 X-58.5762 Y67.0692 
G01 X-58.6057 Y66.9980 
G01 X-58.6057 Y66.5373 
G00 Z2.5400 
G00 X-37.6557 Y20.8173 
G01 Z-0.1778 F254.00 
G01 X-37.6731 Y20.7753 F508.00 
G01 X-37.7053 Y20.7431 
G01 X-37.7473 Y20.7257 
G01 X-39.0927 Y20.7257 
G01 X-39.1347 Y20.7431 
G01 X-39.1669 Y20.7753 
G01 X-39.1843 Y20.8173 
G01 X-39.1843 Y21.2780 
G01 X-39.2138 Y21.3492 
G01 X-39.2455 Y21.5087 
G01 X-39.2455 Y28.9902 
G01 X-39.2107 Y29.1876 
G01 X-39.1421 Y29.3760 
G01 X-39.0419 Y29.5495 
G01 X-38.9131 Y29.7031 
G01 X-38.7595 Y29.8319 
G01 X-38.5860 Y29.9321 
G01 X-38.3976 Y30.0007 
G01 X-38.2002 Y30.0355 
G01 X-38.0187 Y30.0355 
G01 X-37.8592 Y30.0038 
G01 X-37.8132 Y29.9847 
G01 X-37.7791 Y29.9847 
G01 X-37.7550 Y29.9606 
G01 X-37.7090 Y29.9415 
G01 X-37.5738 Y29.8512 
G01 X-37.4588 Y29.7362 
G01 X-37.3685 Y29.6010 
G01 X-37.3494 Y29.5550 
G01 X-37.3253 Y29.5309 
G01 X-37.3253 Y29.4968 
G01 X-37.3062 Y29.4508 
G01 X-37.2745 Y29.2913 
G01 X-37.2745 Y29.1287 
G01 X-37.3062 Y28.9692 
G01 X-37.3253 Y28.9232 
G01 X-37.3253 Y28.8891 
G01 X-37.3494 Y28.8650 
G01 X-37.3685 Y28.8190 
G01 X-37.4588 Y28.6838 
G01 X-37.5738 Y28.5688 
G01 X-37.5945 Y28.5549 
G01 X-37.5945 Y25.7115 
G01 X-37.5615 Y25.7910 
G01 X-37.4712 Y25.9262 
G01 X-37.4305 Y25.9669 
G01 X-37.3979 Y26.0001 
G01 X-37.3562 Y26.0412 
G01 X-37.2210 Y26.1315 
G01 X-37.0708 Y26.1938 
G01 X-36.9113 Y26.2255 
G01 X-34.1249 Y26.2255 
G01 X-34.1249 Y26.4776 
G01 X-34.0977 Y26.6493 
G01 X-34.0439 Y26.8147 
G01 X-33.9650 Y26.9697 
G01 X-33.8628 Y27.1104 
G01 X-33.7398 Y27.2334 
G01 X-33.5991 Y27.3356 
G01 X-33.4441 Y27.4145 
G01 X-33.2787 Y27.4683 
G01 X-33.1070 Y27.4955 
G01 X-32.9330 Y27.4955 
G01 X-32.7613 Y27.4683 
G01 X-32.5959 Y27.4145 
G01 X-32.4409 Y27.3356 
G01 X-32.3002 Y27.2334 
G01 X-32.1772 Y27.1104 
G01 X-32.0750 Y26.9697 
G01 X-31.9961 Y26.8147 
G01 X-31.9423 Y26.6493 
G01 X-31.9151 Y26.4776 
G01 X-31.9151 Y24.3224 
G01 X-31.9423 Y24.1507 
G01 X-31.9961 Y23.9853 
G01 X-32.0750 Y23.8303 
G01 X-32.1772 Y23.6896 
G01 X-32.3002 Y23.5666 
G01 X-32.4409 Y23.4644 
G01 X-32.5959 Y23.3855 
G01 X-32.7613 Y23.3317 
G01 X-32.9330 Y23.3045 
G01 X-33.1070 Y23.3045 
G01 X-33.2787 Y23.3317 
G01 X-33.4441 Y23.3855 
G01 X-33.5991 Y23.4644 
G01 X-33.7398 Y23.5666 
G01 X-33.8628 Y23.6896 
G01 X-33.9650 Y23.8303 
G01 X-34.0439 Y23.9853 
G01 X-34.0977 Y24.1507 
G01 X-34.1249 Y24.3224 
G01 X-34.1249 Y24.5745 
G01 X-36.9113 Y24.5745 
G01 X-37.0708 Y24.6062 
G01 X-37.2210 Y24.6684 
G01 X-37.3562 Y24.7588 
G01 X-37.3969 Y24.7995 
G01 X-37.4301 Y24.8321 
G01 X-37.4712 Y24.8738 
G01 X-37.5615 Y25.0090 
G01 X-37.5945 Y25.0885 
G01 X-37.5945 Y21.5087 
G01 X-37.6262 Y21.3492 
G01 X-37.6557 Y21.2780 
G01 X-37.6557 Y20.8173 
G00 Z2.5400 
G00 X-39.5557 Y22.3627 
G01 Z-0.1778 F254.00 
G01 X-39.5557 Y21.9020 F508.00 
G01 X-39.5262 Y21.8308 
G01 X-39.4945 Y21.6713 
G01 X-39.4945 Y21.5900 
G01 X-39.4922 Y21.5003 
G01 X-39.4734 Y21.3218 
G01 X-39.4361 Y21.1463 
G01 X-39.3806 Y20.9756 
G01 X-39.3076 Y20.8116 
G01 X-39.2179 Y20.6562 
G01 X-39.1124 Y20.5110 
G01 X-38.9923 Y20.3777 
G01 X-38.8590 Y20.2576 
G01 X-38.7138 Y20.1521 
G01 X-38.5584 Y20.0624 
G01 X-38.3944 Y19.9894 
G01 X-38.2237 Y19.9339 
G01 X-38.0482 Y19.8966 
G01 X-37.8697 Y19.8778 
G01 X-37.7800 Y19.8755 
G01 X-27.8587 Y19.8755 
G01 X-27.6992 Y19.8438 
G01 X-27.5490 Y19.7815 
G01 X-27.4138 Y19.6912 
G01 X-27.3731 Y19.6505 
G01 X-27.3399 Y19.6179 
G01 X-27.2988 Y19.5762 
G01 X-27.2085 Y19.4410 
G01 X-27.1462 Y19.2908 
G01 X-27.1145 Y19.1313 
G01 X-27.1145 Y18.9687 
G01 X-27.1462 Y18.8092 
G01 X-27.2085 Y18.6590 
G01 X-27.2988 Y18.5238 
G01 X-27.3395 Y18.4831 
G01 X-27.3721 Y18.4499 
G01 X-27.4138 Y18.4088 
G01 X-27.5490 Y18.3185 
G01 X-27.6992 Y18.2562 
G01 X-27.8587 Y18.2245 
G01 X-37.9564 Y18.2245 
G01 X-38.3072 Y18.2614 
G01 X-38.6522 Y18.3347 
G01 X-38.9877 Y18.4437 
G01 X-39.3100 Y18.5872 
G01 X-39.6155 Y18.7636 
G01 X-39.9009 Y18.9709 
G01 X-40.1630 Y19.2070 
G01 X-40.3991 Y19.4691 
G01 X-40.6064 Y19.7545 
G01 X-40.7828 Y20.0600 
G01 X-40.9263 Y20.3823 
G01 X-41.0353 Y20.7177 
G01 X-41.0423 Y20.7506 
G01 X-41.0561 Y20.7645 
G01 X-42.1471 Y20.7645 
G01 X-42.3186 Y20.7947 
G01 X-42.4823 Y20.8543 
G01 X-42.6332 Y20.9414 
G01 X-42.6383 Y20.9457 
G01 X-42.7527 Y20.9457 
G01 X-42.7947 Y20.9631 
G01 X-42.8269 Y20.9953 
G01 X-42.8443 Y21.0373 
G01 X-42.8443 Y21.1460 
G01 X-42.8786 Y21.1868 
G01 X-42.9657 Y21.3377 
G01 X-43.0252 Y21.5014 
G01 X-43.0555 Y21.6729 
G01 X-43.0555 Y21.8413 
G01 X-43.0238 Y22.0008 
G01 X-42.9615 Y22.1510 
G01 X-42.8712 Y22.2862 
G01 X-42.8443 Y22.3131 
G01 X-42.8443 Y22.4827 
G01 X-42.8269 Y22.5247 
G01 X-42.7947 Y22.5569 
G01 X-42.7527 Y22.5743 
G01 X-42.3676 Y22.5743 
G01 X-42.3113 Y22.5855 
G01 X-42.1487 Y22.5855 
G01 X-42.0924 Y22.5743 
G01 X-41.7073 Y22.5743 
G01 X-41.6653 Y22.5569 
G01 X-41.6331 Y22.5247 
G01 X-41.6157 Y22.4827 
G01 X-41.6157 Y22.4155 
G01 X-41.0561 Y22.4155 
G01 X-41.0347 Y22.4369 
G01 X-40.9927 Y22.4543 
G01 X-39.6473 Y22.4543 
G01 X-39.6053 Y22.4369 
G01 X-39.5731 Y22.4047 
G01 X-39.5557 Y22.3627 
G00 Z2.5400 
G00 X-43.6773 Y13.1443 
G01 Z-0.1778 F254.00 
G01 X-43.6353 Y13.1269 F508.00 
G01 X-43.6031 Y13.0947 
G01 X-43.5857 Y13.0527 
G01 X-43.5857 Y11.7073 
G01 X-43.6031 Y11.6653 
G01 X-43.6353 Y11.6331 
G01 X-43.6773 Y11.6157 
G01 X-44.1380 Y11.6157 
G01 X-44.2092 Y11.5862 
G01 X-44.3687 Y11.5545 
G01 X-44.5313 Y11.5545 
G01 X-44.6908 Y11.5862 
G01 X-44.7619 Y11.6157 
G01 X-45.2227 Y11.6157 
G01 X-45.2647 Y11.6331 
G01 X-45.2969 Y11.6653 
G01 X-45.3143 Y11.7073 
G01 X-45.3143 Y11.8745 
G01 X-48.4710 Y11.8745 
G01 X-48.5124 Y11.8574 
G01 X-48.6817 Y11.8237 
G01 X-49.9379 Y11.8237 
G01 X-49.9737 Y11.8161 
G01 X-50.1444 Y11.7606 
G01 X-50.3084 Y11.6876 
G01 X-50.4638 Y11.5979 
G01 X-50.6090 Y11.4924 
G01 X-50.7423 Y11.3723 
G01 X-50.8624 Y11.2390 
G01 X-50.9679 Y11.0938 
G01 X-51.0576 Y10.9384 
G01 X-51.1306 Y10.7744 
G01 X-51.1861 Y10.6037 
G01 X-51.2234 Y10.4282 
G01 X-51.2422 Y10.2497 
G01 X-51.2445 Y10.1600 
G01 X-51.2445 Y6.2687 
G01 X-51.2762 Y6.1092 
G01 X-51.3385 Y5.9590 
G01 X-51.4288 Y5.8238 
G01 X-51.4695 Y5.7831 
G01 X-51.5021 Y5.7499 
G01 X-51.5438 Y5.7088 
G01 X-51.6790 Y5.6185 
G01 X-51.8292 Y5.5562 
G01 X-51.9887 Y5.5245 
G01 X-52.1513 Y5.5245 
G01 X-52.3108 Y5.5562 
G01 X-52.4610 Y5.6185 
G01 X-52.5962 Y5.7088 
G01 X-52.6369 Y5.7495 
G01 X-52.6701 Y5.7821 
G01 X-52.7112 Y5.8238 
G01 X-52.8015 Y5.9590 
G01 X-52.8638 Y6.1092 
G01 X-52.8955 Y6.2687 
G01 X-52.8955 Y10.3364 
G01 X-52.8586 Y10.6872 
G01 X-52.7853 Y11.0322 
G01 X-52.6763 Y11.3677 
G01 X-52.5328 Y11.6900 
G01 X-52.3564 Y11.9955 
G01 X-52.1491 Y12.2809 
G01 X-51.9130 Y12.5430 
G01 X-51.6509 Y12.7791 
G01 X-51.3655 Y12.9864 
G01 X-51.0600 Y13.1628 
G01 X-51.0268 Y13.1776 
G01 X-50.9727 Y13.2586 
G01 X-50.8506 Y13.3807 
G01 X-50.7071 Y13.4766 
G01 X-50.5476 Y13.5426 
G01 X-50.3783 Y13.5763 
G01 X-48.6817 Y13.5763 
G01 X-48.5124 Y13.5426 
G01 X-48.4710 Y13.5255 
G01 X-44.6887 Y13.5255 
G01 X-44.5292 Y13.4938 
G01 X-44.3790 Y13.4315 
G01 X-44.2438 Y13.3412 
G01 X-44.1288 Y13.2262 
G01 X-44.0469 Y13.1443 
G01 X-43.6773 Y13.1443 
G00 Z2.5400 
G00 X-45.2227 Y11.2443 
G01 Z-0.1778 F254.00 
G01 X-44.7620 Y11.2443 F508.00 
G01 X-44.6908 Y11.2738 
G01 X-44.5313 Y11.3055 
G01 X-44.3687 Y11.3055 
G01 X-44.2092 Y11.2738 
G01 X-44.1380 Y11.2443 
G01 X-43.6773 Y11.2443 
G01 X-43.6353 Y11.2269 
G01 X-43.6031 Y11.1947 
G01 X-43.5857 Y11.1527 
G01 X-43.5857 Y9.8073 
G01 X-43.6031 Y9.7653 
G01 X-43.6245 Y9.7439 
G01 X-43.6245 Y9.7155 
G01 X-41.7726 Y9.7155 
G01 X-41.5003 Y9.6796 
G01 X-41.2350 Y9.6085 
G01 X-40.9812 Y9.5034 
G01 X-40.7433 Y9.3661 
G01 X-40.5254 Y9.1989 
G01 X-40.3311 Y9.0046 
G01 X-40.1639 Y8.7867 
G01 X-40.0266 Y8.5488 
G01 X-39.9215 Y8.2950 
G01 X-39.8504 Y8.0297 
G01 X-39.8145 Y7.7573 
G01 X-39.8145 Y7.5387 
G01 X-39.8462 Y7.3792 
G01 X-39.9085 Y7.2290 
G01 X-39.9988 Y7.0938 
G01 X-40.0395 Y7.0531 
G01 X-40.0721 Y7.0199 
G01 X-40.1138 Y6.9788 
G01 X-40.2490 Y6.8885 
G01 X-40.3992 Y6.8262 
G01 X-40.5587 Y6.7945 
G01 X-40.7213 Y6.7945 
G01 X-40.8808 Y6.8262 
G01 X-41.0310 Y6.8885 
G01 X-41.1662 Y6.9788 
G01 X-41.2069 Y7.0195 
G01 X-41.2401 Y7.0521 
G01 X-41.2812 Y7.0938 
G01 X-41.3715 Y7.2290 
G01 X-41.4338 Y7.3792 
G01 X-41.4655 Y7.5387 
G01 X-41.4655 Y7.6200 
G01 X-41.4665 Y7.6491 
G01 X-41.4740 Y7.7067 
G01 X-41.4891 Y7.7629 
G01 X-41.5113 Y7.8166 
G01 X-41.5404 Y7.8670 
G01 X-41.5758 Y7.9131 
G01 X-41.6169 Y7.9542 
G01 X-41.6630 Y7.9896 
G01 X-41.7134 Y8.0187 
G01 X-41.7671 Y8.0409 
G01 X-41.8233 Y8.0560 
G01 X-41.8809 Y8.0635 
G01 X-41.9100 Y8.0645 
G01 X-43.8357 Y8.0645 
G01 X-43.8357 Y7.9973 
G01 X-43.8531 Y7.9553 
G01 X-43.8853 Y7.9231 
G01 X-43.9273 Y7.9057 
G01 X-44.3124 Y7.9057 
G01 X-44.3687 Y7.8945 
G01 X-44.5313 Y7.8945 
G01 X-44.5876 Y7.9057 
G01 X-44.9727 Y7.9057 
G01 X-45.0147 Y7.9231 
G01 X-45.0469 Y7.9553 
G01 X-45.0643 Y7.9973 
G01 X-45.0643 Y8.1669 
G01 X-45.0912 Y8.1938 
G01 X-45.1815 Y8.3290 
G01 X-45.2438 Y8.4792 
G01 X-45.2755 Y8.6387 
G01 X-45.2755 Y9.7439 
G01 X-45.2969 Y9.7653 
G01 X-45.3143 Y9.8073 
G01 X-45.3143 Y11.1527 
G01 X-45.2969 Y11.1947 
G01 X-45.2647 Y11.2269 
G01 X-45.2227 Y11.2443 
G00 Z2.5400 
G00 X-16.6751 Y7.4276 
G01 Z-0.1778 F254.00 
G01 X-16.6751 Y5.2724 F508.00 
G01 X-16.7023 Y5.1007 
G01 X-16.7561 Y4.9353 
G01 X-16.8350 Y4.7803 
G01 X-16.9372 Y4.6396 
G01 X-17.0602 Y4.5166 
G01 X-17.2009 Y4.4144 
G01 X-17.3559 Y4.3354 
G01 X-17.5213 Y4.2817 
G01 X-17.6930 Y4.2545 
G01 X-17.8670 Y4.2545 
G01 X-18.0387 Y4.2817 
G01 X-18.2041 Y4.3354 
G01 X-18.3591 Y4.4144 
G01 X-18.4998 Y4.5166 
G01 X-18.6228 Y4.6396 
G01 X-18.7250 Y4.7803 
G01 X-18.8039 Y4.9353 
G01 X-18.8577 Y5.1007 
G01 X-18.8849 Y5.2724 
G01 X-18.8849 Y7.4276 
G01 X-18.8577 Y7.5993 
G01 X-18.8039 Y7.7647 
G01 X-18.7250 Y7.9197 
G01 X-18.6228 Y8.0604 
G01 X-18.6055 Y8.0777 
G01 X-18.6055 Y12.2423 
G01 X-18.6228 Y12.2596 
G01 X-18.7250 Y12.4003 
G01 X-18.8039 Y12.5553 
G01 X-18.8577 Y12.7207 
G01 X-18.8849 Y12.8924 
G01 X-18.8849 Y15.0476 
G01 X-18.8577 Y15.2193 
G01 X-18.8039 Y15.3847 
G01 X-18.7250 Y15.5397 
G01 X-18.6228 Y15.6804 
G01 X-18.6055 Y15.6977 
G01 X-18.6055 Y17.9178 
G01 X-19.1643 Y18.4766 
G01 X-19.1643 Y19.6234 
G01 X-18.3534 Y20.4343 
G01 X-17.2066 Y20.4343 
G01 X-16.3957 Y19.6234 
G01 X-16.3957 Y18.4766 
G01 X-16.9545 Y17.9178 
G01 X-16.9545 Y15.6977 
G01 X-16.9372 Y15.6804 
G01 X-16.8350 Y15.5397 
G01 X-16.7561 Y15.3847 
G01 X-16.7023 Y15.2193 
G01 X-16.6751 Y15.0476 
G01 X-16.6751 Y12.8924 
G01 X-16.7023 Y12.7207 
G01 X-16.7561 Y12.5553 
G01 X-16.8350 Y12.4003 
G01 X-16.9372 Y12.2596 
G01 X-16.9545 Y12.2423 
G01 X-16.9545 Y8.0777 
G01 X-16.9372 Y8.0604 
G01 X-16.8350 Y7.9197 
G01 X-16.7561 Y7.7647 
G01 X-16.7023 Y7.5993 
G01 X-16.6751 Y7.4276 
G00 Z2.5400 
G00 X-44.7857 Y7.2427 
G01 Z-0.1778 F254.00 
G01 X-44.7857 Y7.0731 F508.00 
G01 X-44.7588 Y7.0462 
G01 X-44.6684 Y6.9110 
G01 X-44.6062 Y6.7608 
G01 X-44.5745 Y6.6013 
G01 X-44.5745 Y6.4387 
G01 X-44.6062 Y6.2792 
G01 X-44.6684 Y6.1290 
G01 X-44.7588 Y5.9938 
G01 X-44.7857 Y5.9669 
G01 X-44.7857 Y5.7973 
G01 X-44.8031 Y5.7553 
G01 X-44.8353 Y5.7231 
G01 X-44.8773 Y5.7057 
G01 X-45.2624 Y5.7057 
G01 X-45.3187 Y5.6945 
G01 X-45.5461 Y5.6945 
G01 X-45.6384 Y5.7057 
G01 X-45.9227 Y5.7057 
G01 X-45.9647 Y5.7231 
G01 X-45.9969 Y5.7553 
G01 X-46.0034 Y5.7709 
G01 X-46.1199 Y5.7997 
G01 X-46.3932 Y5.9033 
G01 X-46.6519 Y6.0391 
G01 X-46.8924 Y6.2051 
G01 X-47.1111 Y6.3989 
G01 X-47.3049 Y6.6176 
G01 X-47.4709 Y6.8581 
G01 X-47.6067 Y7.1168 
G01 X-47.7103 Y7.3901 
G01 X-47.7803 Y7.6738 
G01 X-47.8155 Y7.9639 
G01 X-47.8155 Y10.2413 
G01 X-47.7838 Y10.4008 
G01 X-47.7215 Y10.5510 
G01 X-47.6312 Y10.6862 
G01 X-47.5905 Y10.7269 
G01 X-47.5579 Y10.7601 
G01 X-47.5162 Y10.8012 
G01 X-47.3810 Y10.8915 
G01 X-47.2308 Y10.9538 
G01 X-47.0713 Y10.9855 
G01 X-46.9087 Y10.9855 
G01 X-46.7492 Y10.9538 
G01 X-46.5990 Y10.8915 
G01 X-46.4638 Y10.8012 
G01 X-46.4231 Y10.7605 
G01 X-46.3899 Y10.7279 
G01 X-46.3488 Y10.6862 
G01 X-46.2585 Y10.5510 
G01 X-46.1962 Y10.4008 
G01 X-46.1645 Y10.2413 
G01 X-46.1645 Y8.1100 
G01 X-46.1631 Y8.0638 
G01 X-46.1520 Y7.9722 
G01 X-46.1299 Y7.8826 
G01 X-46.0971 Y7.7962 
G01 X-46.0542 Y7.7145 
G01 X-46.0018 Y7.6385 
G01 X-45.9406 Y7.5694 
G01 X-45.8715 Y7.5082 
G01 X-45.7955 Y7.4558 
G01 X-45.7138 Y7.4129 
G01 X-45.6274 Y7.3801 
G01 X-45.5378 Y7.3580 
G01 X-45.4462 Y7.3469 
G01 X-45.4000 Y7.3455 
G01 X-45.3187 Y7.3455 
G01 X-45.2624 Y7.3343 
G01 X-44.8773 Y7.3343 
G01 X-44.8353 Y7.3169 
G01 X-44.8031 Y7.2847 
G01 X-44.7857 Y7.2427 
G00 Z2.5400 
G00 X-37.6557 Y16.0127 
G01 Z-0.1778 F254.00 
G01 X-37.6557 Y15.5520 F508.00 
G01 X-37.6262 Y15.4808 
G01 X-37.5945 Y15.3213 
G01 X-37.5945 Y13.3551 
G01 X-37.5738 Y13.3412 
G01 X-37.4588 Y13.2262 
G01 X-37.3685 Y13.0910 
G01 X-37.3494 Y13.0450 
G01 X-37.3253 Y13.0209 
G01 X-37.3253 Y12.9868 
G01 X-37.3062 Y12.9408 
G01 X-37.2745 Y12.7813 
G01 X-37.2745 Y12.6187 
G01 X-37.3062 Y12.4592 
G01 X-37.3253 Y12.4131 
G01 X-37.3253 Y12.3791 
G01 X-37.3494 Y12.3550 
G01 X-37.3685 Y12.3090 
G01 X-37.4588 Y12.1738 
G01 X-37.5738 Y12.0588 
G01 X-37.7090 Y11.9685 
G01 X-37.7550 Y11.9494 
G01 X-37.7791 Y11.9253 
G01 X-37.8132 Y11.9253 
G01 X-37.8592 Y11.9062 
G01 X-38.0187 Y11.8745 
G01 X-38.2002 Y11.8745 
G01 X-38.3976 Y11.9093 
G01 X-38.5860 Y11.9779 
G01 X-38.7595 Y12.0781 
G01 X-38.9131 Y12.2069 
G01 X-39.0419 Y12.3605 
G01 X-39.1421 Y12.5340 
G01 X-39.2107 Y12.7224 
G01 X-39.2455 Y12.9198 
G01 X-39.2455 Y15.3213 
G01 X-39.2138 Y15.4808 
G01 X-39.1843 Y15.5520 
G01 X-39.1843 Y15.9601 
G01 X-39.2513 Y16.1106 
G01 X-39.3517 Y16.2845 
G01 X-39.4697 Y16.4468 
G01 X-39.6040 Y16.5960 
G01 X-39.7532 Y16.7303 
G01 X-39.9155 Y16.8483 
G01 X-40.0894 Y16.9487 
G01 X-40.2728 Y17.0303 
G01 X-40.4637 Y17.0924 
G01 X-40.6600 Y17.1341 
G01 X-40.8596 Y17.1551 
G01 X-40.9600 Y17.1577 
G01 X-41.9713 Y17.1577 
G01 X-41.9954 Y17.1625 
G01 X-42.4359 Y17.1625 
G01 X-42.4779 Y17.1799 
G01 X-42.5101 Y17.2121 
G01 X-42.5275 Y17.2541 
G01 X-42.5275 Y17.6946 
G01 X-42.5323 Y17.7187 
G01 X-42.5323 Y17.8413 
G01 X-42.5275 Y17.8654 
G01 X-42.5275 Y18.3059 
G01 X-42.5101 Y18.3479 
G01 X-42.4779 Y18.3801 
G01 X-42.4359 Y18.3975 
G01 X-41.9954 Y18.3975 
G01 X-41.9713 Y18.4023 
G01 X-40.7943 Y18.4023 
G01 X-40.4646 Y18.3677 
G01 X-40.1404 Y18.2987 
G01 X-39.8252 Y18.1963 
G01 X-39.5224 Y18.0615 
G01 X-39.2353 Y17.8958 
G01 X-38.9672 Y17.7009 
G01 X-38.7208 Y17.4792 
G01 X-38.4991 Y17.2328 
G01 X-38.3042 Y16.9647 
G01 X-38.1385 Y16.6776 
G01 X-38.0037 Y16.3748 
G01 X-37.9158 Y16.1043 
G01 X-37.7473 Y16.1043 
G01 X-37.7053 Y16.0869 
G01 X-37.6731 Y16.0547 
G01 X-37.6557 Y16.0127 
G00 Z2.5400 
G00 X-43.9527 Y28.3843 
G01 Z-0.1778 F254.00 
G01 X-43.6260 Y28.3843 F508.00 
G01 X-42.5043 Y29.7887 
G01 X-42.3799 Y29.8935 
G01 X-42.2376 Y29.9721 
G01 X-42.0826 Y30.0213 
G01 X-41.9210 Y30.0394 
G01 X-41.7590 Y30.0256 
G01 X-41.6027 Y29.9805 
G01 X-41.4583 Y29.9057 
G01 X-41.3313 Y29.8043 
G01 X-41.2265 Y29.6799 
G01 X-41.1479 Y29.5376 
G01 X-41.0987 Y29.3826 
G01 X-41.0806 Y29.2210 
G01 X-41.0944 Y29.0590 
G01 X-41.1395 Y28.9027 
G01 X-41.2143 Y28.7583 
G01 X-42.3157 Y27.3794 
G01 X-42.3157 Y26.9473 
G01 X-42.3331 Y26.9053 
G01 X-42.3653 Y26.8731 
G01 X-42.4073 Y26.8557 
G01 X-42.8594 Y26.8557 
G01 X-43.0074 Y26.8087 
G01 X-43.1690 Y26.7906 
G01 X-43.3310 Y26.8044 
G01 X-43.4873 Y26.8495 
G01 X-43.4992 Y26.8557 
G01 X-43.9527 Y26.8557 
G01 X-43.9947 Y26.8731 
G01 X-44.0269 Y26.9053 
G01 X-44.0443 Y26.9473 
G01 X-44.0443 Y28.2927 
G01 X-44.0269 Y28.3347 
G01 X-43.9947 Y28.3669 
G01 X-43.9527 Y28.3843 
G00 Z2.5400 
G00 X-11.5951 Y34.0976 
G01 Z-0.1778 F254.00 
G01 X-11.5951 Y31.9424 F508.00 
G01 X-11.6223 Y31.7707 
G01 X-11.6761 Y31.6053 
G01 X-11.7550 Y31.4503 
G01 X-11.8572 Y31.3096 
G01 X-11.8745 Y31.2923 
G01 X-11.8745 Y27.1277 
G01 X-11.8572 Y27.1104 
G01 X-11.7550 Y26.9697 
G01 X-11.6761 Y26.8147 
G01 X-11.6223 Y26.6493 
G01 X-11.5951 Y26.4776 
G01 X-11.5951 Y24.3224 
G01 X-11.6223 Y24.1507 
G01 X-11.6761 Y23.9853 
G01 X-11.7550 Y23.8303 
G01 X-11.8572 Y23.6896 
G01 X-11.9802 Y23.5666 
G01 X-12.1209 Y23.4644 
G01 X-12.2759 Y23.3855 
G01 X-12.4413 Y23.3317 
G01 X-12.6130 Y23.3045 
G01 X-12.7870 Y23.3045 
G01 X-12.9587 Y23.3317 
G01 X-13.1241 Y23.3855 
G01 X-13.2791 Y23.4644 
G01 X-13.4198 Y23.5666 
G01 X-13.5428 Y23.6896 
G01 X-13.6450 Y23.8303 
G01 X-13.7239 Y23.9853 
G01 X-13.7777 Y24.1507 
G01 X-13.8049 Y24.3224 
G01 X-13.8049 Y26.4776 
G01 X-13.7777 Y26.6493 
G01 X-13.7239 Y26.8147 
G01 X-13.6450 Y26.9697 
G01 X-13.5428 Y27.1104 
G01 X-13.5255 Y27.1277 
G01 X-13.5255 Y31.2923 
G01 X-13.5428 Y31.3096 
G01 X-13.6450 Y31.4503 
G01 X-13.7239 Y31.6053 
G01 X-13.7777 Y31.7707 
G01 X-13.8049 Y31.9424 
G01 X-13.8049 Y34.0976 
G01 X-13.7777 Y34.2693 
G01 X-13.7239 Y34.4347 
G01 X-13.6450 Y34.5897 
G01 X-13.5428 Y34.7304 
G01 X-13.5255 Y34.7477 
G01 X-13.5255 Y36.9678 
G01 X-14.0843 Y37.5266 
G01 X-14.0843 Y38.6734 
G01 X-13.2734 Y39.4843 
G01 X-12.1266 Y39.4843 
G01 X-11.3157 Y38.6734 
G01 X-11.3157 Y37.5266 
G01 X-11.8745 Y36.9678 
G01 X-11.8745 Y34.7477 
G01 X-11.8572 Y34.7304 
G01 X-11.7550 Y34.5897 
G01 X-11.6761 Y34.4347 
G01 X-11.6223 Y34.2693 
G01 X-11.5951 Y34.0976 
G00 Z2.5400 
G00 X-39.5557 Y35.0627 
G01 Z-0.1778 F254.00 
G01 X-39.5557 Y34.6020 F508.00 
G01 X-39.5262 Y34.5308 
G01 X-39.4945 Y34.3713 
G01 X-39.4945 Y34.2087 
G01 X-39.5262 Y34.0492 
G01 X-39.5557 Y33.9780 
G01 X-39.5557 Y33.5173 
G01 X-39.5731 Y33.4753 
G01 X-39.6053 Y33.4431 
G01 X-39.6473 Y33.4257 
G01 X-40.9927 Y33.4257 
G01 X-41.0347 Y33.4431 
G01 X-41.0561 Y33.4645 
G01 X-41.9100 Y33.4645 
G01 X-42.0402 Y33.4617 
G01 X-42.2996 Y33.4390 
G01 X-42.5560 Y33.3938 
G01 X-42.8075 Y33.3264 
G01 X-43.0521 Y33.2373 
G01 X-43.2881 Y33.1273 
G01 X-43.5136 Y32.9971 
G01 X-43.7268 Y32.8478 
G01 X-43.9263 Y32.6804 
G01 X-44.1104 Y32.4963 
G01 X-44.2778 Y32.2968 
G01 X-44.4271 Y32.0836 
G01 X-44.5573 Y31.8581 
G01 X-44.6673 Y31.6221 
G01 X-44.7564 Y31.3775 
G01 X-44.8238 Y31.1260 
G01 X-44.8690 Y30.8696 
G01 X-44.8917 Y30.6102 
G01 X-44.8945 Y30.4800 
G01 X-44.8945 Y23.3500 
G01 X-44.8931 Y23.3038 
G01 X-44.8820 Y23.2122 
G01 X-44.8599 Y23.1226 
G01 X-44.8271 Y23.0362 
G01 X-44.7842 Y22.9545 
G01 X-44.7318 Y22.8785 
G01 X-44.6706 Y22.8094 
G01 X-44.6015 Y22.7482 
G01 X-44.5255 Y22.6958 
G01 X-44.4438 Y22.6529 
G01 X-44.3574 Y22.6201 
G01 X-44.2678 Y22.5980 
G01 X-44.1762 Y22.5869 
G01 X-44.1300 Y22.5855 
G01 X-44.0487 Y22.5855 
G01 X-43.9924 Y22.5743 
G01 X-43.6073 Y22.5743 
G01 X-43.5653 Y22.5569 
G01 X-43.5331 Y22.5247 
G01 X-43.5157 Y22.4827 
G01 X-43.5157 Y22.3131 
G01 X-43.4888 Y22.2862 
G01 X-43.3985 Y22.1510 
G01 X-43.3362 Y22.0008 
G01 X-43.3045 Y21.8413 
G01 X-43.3045 Y21.6787 
G01 X-43.3362 Y21.5192 
G01 X-43.3985 Y21.3690 
G01 X-43.4888 Y21.2338 
G01 X-43.5157 Y21.2069 
G01 X-43.5157 Y21.0373 
G01 X-43.5331 Y20.9953 
G01 X-43.5653 Y20.9631 
G01 X-43.6073 Y20.9457 
G01 X-43.9924 Y20.9457 
G01 X-44.0487 Y20.9345 
G01 X-44.2761 Y20.9345 
G01 X-44.3684 Y20.9457 
G01 X-44.6527 Y20.9457 
G01 X-44.6947 Y20.9631 
G01 X-44.7269 Y20.9953 
G01 X-44.7334 Y21.0109 
G01 X-44.8499 Y21.0397 
G01 X-45.1232 Y21.1433 
G01 X-45.3819 Y21.2791 
G01 X-45.6224 Y21.4451 
G01 X-45.8411 Y21.6389 
G01 X-46.0349 Y21.8576 
G01 X-46.2009 Y22.0981 
G01 X-46.3367 Y22.3568 
G01 X-46.4403 Y22.6301 
G01 X-46.5103 Y22.9138 
G01 X-46.5455 Y23.2039 
G01 X-46.5455 Y30.6824 
G01 X-46.5102 Y31.0856 
G01 X-46.4399 Y31.4843 
G01 X-46.3352 Y31.8752 
G01 X-46.1967 Y32.2556 
G01 X-46.0257 Y32.6225 
G01 X-45.8233 Y32.9730 
G01 X-45.5911 Y33.3046 
G01 X-45.3309 Y33.6147 
G01 X-45.0447 Y33.9009 
G01 X-44.7346 Y34.1611 
G01 X-44.4030 Y34.3933 
G01 X-44.0525 Y34.5957 
G01 X-43.6856 Y34.7667 
G01 X-43.3053 Y34.9052 
G01 X-42.9143 Y35.0099 
G01 X-42.5156 Y35.0802 
G01 X-42.1124 Y35.1155 
G01 X-41.0561 Y35.1155 
G01 X-41.0347 Y35.1369 
G01 X-40.9927 Y35.1543 
G01 X-39.6473 Y35.1543 
G01 X-39.6053 Y35.1369 
G01 X-39.5731 Y35.1047 
G01 X-39.5557 Y35.0627 
G00 Z2.5400 
G00 X-36.3347 Y49.2091 
G01 Z-0.1778 F254.00 
G01 X-36.3347 Y49.2432 F508.00 
G01 X-36.3538 Y49.2892 
G01 X-36.3855 Y49.4487 
G01 X-36.3855 Y49.6113 
G01 X-36.3538 Y49.7708 
G01 X-36.3347 Y49.8168 
G01 X-36.3347 Y49.8509 
G01 X-36.3106 Y49.8750 
G01 X-36.2915 Y49.9210 
G01 X-36.2012 Y50.0562 
G01 X-36.0862 Y50.1712 
G01 X-35.9510 Y50.2615 
G01 X-35.9050 Y50.2806 
G01 X-35.8809 Y50.3047 
G01 X-35.8468 Y50.3047 
G01 X-35.8008 Y50.3238 
G01 X-35.6413 Y50.3555 
G01 X-29.1287 Y50.3555 
G01 X-28.9692 Y50.3238 
G01 X-28.8190 Y50.2615 
G01 X-28.6838 Y50.1712 
G01 X-28.6431 Y50.1305 
G01 X-28.6099 Y50.0979 
G01 X-28.5688 Y50.0562 
G01 X-28.4785 Y49.9210 
G01 X-28.4162 Y49.7708 
G01 X-28.3845 Y49.6113 
G01 X-28.3845 Y49.4487 
G01 X-28.4162 Y49.2892 
G01 X-28.4785 Y49.1390 
G01 X-28.5688 Y49.0038 
G01 X-28.6095 Y48.9631 
G01 X-28.6421 Y48.9299 
G01 X-28.6838 Y48.8888 
G01 X-28.8190 Y48.7985 
G01 X-28.9692 Y48.7362 
G01 X-29.1287 Y48.7045 
G01 X-35.6413 Y48.7045 
G01 X-35.8008 Y48.7362 
G01 X-35.8468 Y48.7553 
G01 X-35.8809 Y48.7553 
G01 X-35.9050 Y48.7794 
G01 X-35.9510 Y48.7985 
G01 X-36.0862 Y48.8888 
G01 X-36.2012 Y49.0038 
G01 X-36.2915 Y49.1390 
G01 X-36.3106 Y49.1850 
G01 X-36.3347 Y49.2091 
G00 Z2.5400 
G00 X-37.7791 Y50.3047 
G01 Z-0.1778 F254.00 
G01 X-37.7550 Y50.2806 F508.00 
G01 X-37.7090 Y50.2615 
G01 X-37.5738 Y50.1712 
G01 X-37.4588 Y50.0562 
G01 X-37.3685 Y49.9210 
G01 X-37.3494 Y49.8750 
G01 X-37.3253 Y49.8509 
G01 X-37.3253 Y49.8168 
G01 X-37.3062 Y49.7708 
G01 X-37.2745 Y49.6113 
G01 X-37.2745 Y49.4487 
G01 X-37.3062 Y49.2892 
G01 X-37.3253 Y49.2432 
G01 X-37.3253 Y49.2091 
G01 X-37.3494 Y49.1850 
G01 X-37.3685 Y49.1390 
G01 X-37.4588 Y49.0038 
G01 X-37.5738 Y48.8888 
G01 X-37.7090 Y48.7985 
G01 X-37.7550 Y48.7794 
G01 X-37.7791 Y48.7553 
G01 X-37.8132 Y48.7553 
G01 X-37.8592 Y48.7362 
G01 X-38.0187 Y48.7045 
G01 X-41.4939 Y48.7045 
G01 X-41.5153 Y48.6831 
G01 X-41.5573 Y48.6657 
G01 X-42.9027 Y48.6657 
G01 X-42.9447 Y48.6831 
G01 X-42.9769 Y48.7153 
G01 X-42.9943 Y48.7573 
G01 X-42.9943 Y49.2180 
G01 X-43.0238 Y49.2892 
G01 X-43.0555 Y49.4487 
G01 X-43.0555 Y49.6113 
G01 X-43.0238 Y49.7708 
G01 X-42.9943 Y49.8420 
G01 X-42.9943 Y50.3027 
G01 X-42.9769 Y50.3447 
G01 X-42.9447 Y50.3769 
G01 X-42.9027 Y50.3943 
G01 X-41.5573 Y50.3943 
G01 X-41.5153 Y50.3769 
G01 X-41.4939 Y50.3555 
G01 X-38.0187 Y50.3555 
G01 X-37.8592 Y50.3238 
G01 X-37.8132 Y50.3047 
G01 X-37.7791 Y50.3047 
G00 Z2.5400 
G00 X-80.1243 Y78.6311 
G01 Z-0.1778 F254.00 
G01 X-80.1243 Y78.8489 F508.00 
G01 X-80.0902 Y79.0642 
G01 X-80.0229 Y79.2714 
G01 X-79.9240 Y79.4655 
G01 X-79.7959 Y79.6418 
G01 X-79.6418 Y79.7959 
G01 X-79.4655 Y79.9240 
G01 X-79.2714 Y80.0229 
G01 X-79.0642 Y80.0902 
G01 X-78.8489 Y80.1243 
G01 X-78.6311 Y80.1243 
G01 X-78.4158 Y80.0902 
G01 X-78.2086 Y80.0229 
G01 X-78.0145 Y79.9240 
G01 X-77.8382 Y79.7959 
G01 X-77.6841 Y79.6418 
G01 X-77.5560 Y79.4655 
G01 X-77.4571 Y79.2714 
G01 X-77.3898 Y79.0642 
G01 X-77.3557 Y78.8489 
G01 X-77.3557 Y78.6311 
G01 X-77.3898 Y78.4158 
G01 X-77.4571 Y78.2086 
G01 X-77.5560 Y78.0145 
G01 X-77.6841 Y77.8382 
G01 X-77.8382 Y77.6841 
G01 X-78.0145 Y77.5560 
G01 X-78.2086 Y77.4571 
G01 X-78.4158 Y77.3898 
G01 X-78.6311 Y77.3557 
G01 X-78.8489 Y77.3557 
G01 X-79.0642 Y77.3898 
G01 X-79.2714 Y77.4571 
G01 X-79.4655 Y77.5560 
G01 X-79.6418 Y77.6841 
G01 X-79.7959 Y77.8382 
G01 X-79.9240 Y78.0145 
G01 X-80.0229 Y78.2086 
G01 X-80.0902 Y78.4158 
G01 X-80.1243 Y78.6311 
G00 Z2.5400 
G00 X-85.2043 Y78.6311 
G01 Z-0.1778 F254.00 
G01 X-85.2043 Y78.8489 F508.00 
G01 X-85.1702 Y79.0642 
G01 X-85.1029 Y79.2714 
G01 X-85.0040 Y79.4655 
G01 X-84.8759 Y79.6418 
