(.../guest/eagle/pcb-gcode/pcb-gcode.ulp)
(Copyright 2005 - 2012 by John Johnson)
(See readme.txt for licensing terms.)
(This file generated from the board:)
(.../ESPSensorBoard/ESPSensorBoard.brd)
(Current profile is .../eagle/pcb-gcode/profiles/emc.pp  )
(This file generated 09.04.17 18:13)
(Settings from pcb-machine.h)
(  Tool Size)
(0.1778 )
(Z Axis Settings)
(  High     Up        Down     Drill)
(12.7000 	2.5400 	-0.1778 	-2.0000 )
(spindle on time = 3.0000)
(milling depth = -6.4516)
(text depth = -3.2258)
(tool change at 12.7000 15.2400 25.4000 )
(feed rate xy = F508.00 )
(feed rate z  = F254.00 )
(Settings from pcb-defaults.h)
(isolate min = 0.0254)
(isolate max = 0.5080)
(isolate step = 0.1270)
(Generated bottom outlines, bottom drill, )
(Unit of measure: mm)
( Tool|       Size       |  Min Sub |  Max Sub |   Count )
( T01 | 0.600mm 0.0236in | 0.0000in | 0.0000in |       0 )
( T02 | 0.800mm 0.0315in | 0.0000in | 0.0000in |       0 )
( T03 | 0.813mm 0.0320in | 0.0000in | 0.0000in |       0 )
( T01 | 1.016mm 0.0400in | 0.0000in | 0.0000in |       0 )
( T01 | 1.321mm 0.0520in | 0.0000in | 0.0000in |       0 )
( T01 | 1.397mm 0.0550in | 0.0000in | 0.0000in |       0 )
( T01 | 1.600mm 0.0630in | 0.0000in | 0.0000in |       0 )
(Metric Mode)
G21
(Absolute Coordinates)
G90
M05
G00 Z25.4000 
G00 X12.7000 Y15.2400 
M06 T01 (0.6000 )
G01 Z0.0000 F254.00 
M06 T01 (0.6000 )
G00 Z2.5400 
M03
G04 P3.000000
G82 X-36.8300 Y7.6200 Z-2.0000 F254.00 R2.5400 P1.000000
G82 X-36.8300 Y25.4000 
G82 X-40.6400 Y7.6200 
G82 X-40.6400 Y25.4000 
G82 X-41.9100 Y36.8300 
G82 X-41.9100 Y3.8100 
G82 X-41.9100 Y17.7800 
G82 X-41.9100 Y29.2100 
G82 X-43.1800 Y31.7500 
G82 X-44.4500 Y41.9100 
G82 X-46.9900 Y10.1600 
G82 X-46.9900 Y15.2400 
G82 X-48.2600 Y22.8600 
G82 X-48.2600 Y29.2100 
G82 X-49.5300 Y41.9100 
G82 X-52.0700 Y6.3500 
G82 X-52.0700 Y1.2700 
G82 X-52.0700 Y21.5900 
G82 X-53.3400 Y25.4000 
G82 X-54.6100 Y19.0500 
G82 X-54.6100 Y27.9400 
G82 X-64.7700 Y41.9100 
G82 X-64.7700 Y53.3400 
G82 X-67.3100 Y7.6200 
G82 X-68.5800 Y59.6900 
G82 X-72.3900 Y55.8800 
G82 X-85.0900 Y7.6200 
G82 X-21.5900 Y19.0500 
G82 X-21.5900 Y2.5400 
G82 X-22.8600 Y49.5300 
G82 X-27.9400 Y19.0500 
G82 X-29.2100 Y49.5300 
M05
G00 Z25.4000 
M06 T02 (0.8000 )
G01 Z0.0000 F254.00 
M06 T02 (0.8000 )
G00 Z2.5400 
M03
G04 P3.000000
G82 X-87.1500 Y62.2300 Z-2.0000 F254.00 R2.5400 P1.000000
G82 X-90.6500 Y62.2300 
M05
G00 Z25.4000 
M06 T03 (0.8128 )
G01 Z0.0000 F254.00 
M06 T03 (0.8128 )
G00 Z2.5400 
M03
G04 P3.000000
G82 X-35.5600 Y49.5300 Z-2.0000 F254.00 R2.5400 P1.000000
G82 X-38.1000 Y31.7500 
G82 X-38.1000 Y49.5300 
G82 X-38.1000 Y10.1600 
G82 X-38.1000 Y12.7000 
G82 X-38.1000 Y29.2100 
G82 X-93.9800 Y5.0800 
G82 X-93.9800 Y11.4300 
G82 X-93.9800 Y13.9700 
G82 X-93.9800 Y2.5400 
M05
G00 Z25.4000 
M06 T01 (1.0160 )
G01 Z0.0000 F254.00 
M06 T01 (1.0160 )
G00 Z2.5400 
M03
G04 P3.000000
G82 X-46.2788 Y72.6694 Z-2.0000 F254.00 R2.5400 P1.000000
G82 X-46.2788 Y77.1906 
G82 X-49.5300 Y12.7000 
G82 X-49.5300 Y15.2400 
G82 X-49.5300 Y17.7800 
G82 X-49.5300 Y20.3200 
G82 X-52.7812 Y72.6694 
G82 X-52.7812 Y77.1906 
G82 X-58.4200 Y33.0200 
G82 X-58.4200 Y35.5600 
G82 X-58.4200 Y38.1000 
G82 X-58.4200 Y40.6400 
G82 X-58.4200 Y5.0800 
G82 X-58.4200 Y7.6200 
G82 X-58.4200 Y10.1600 
G82 X-58.4200 Y12.7000 
G82 X-58.4200 Y15.2400 
G82 X-58.4200 Y17.7800 
G82 X-58.4200 Y20.3200 
G82 X-58.4200 Y22.8600 
G82 X-58.4200 Y25.4000 
G82 X-58.4200 Y27.9400 
G82 X-58.4200 Y30.4800 
G82 X-81.2800 Y33.0200 
G82 X-81.2800 Y35.5600 
G82 X-81.2800 Y38.1000 
G82 X-81.2800 Y40.6400 
G82 X-81.2800 Y5.0800 
G82 X-81.2800 Y7.6200 
G82 X-81.2800 Y10.1600 
G82 X-81.2800 Y12.7000 
G82 X-81.2800 Y15.2400 
G82 X-81.2800 Y17.7800 
G82 X-81.2800 Y20.3200 
G82 X-81.2800 Y22.8600 
G82 X-81.2800 Y25.4000 
G82 X-81.2800 Y27.9400 
G82 X-81.2800 Y30.4800 
M05
G00 Z25.4000 
M06 T01 (1.3208 )
G01 Z0.0000 F254.00 
M06 T01 (1.3208 )
G00 Z2.5400 
M03
G04 P3.000000
G82 X-33.0200 Y33.0200 Z-2.0000 F254.00 R2.5400 P1.000000
G82 X-33.0200 Y6.3500 
G82 X-33.0200 Y13.9700 
G82 X-33.0200 Y25.4000 
G82 X-34.2900 Y63.5000 
G82 X-5.0800 Y53.3400 
G82 X-5.0800 Y60.9600 
G82 X-54.6100 Y38.1000 
G82 X-54.6100 Y30.4800 
G82 X-7.6200 Y33.0200 
G82 X-7.6200 Y6.3500 
G82 X-7.6200 Y13.9700 
G82 X-7.6200 Y25.4000 
G82 X-91.4400 Y31.7500 
G82 X-91.4400 Y16.5100 
G82 X-91.4400 Y20.3200 
G82 X-91.4400 Y24.1300 
G82 X-91.4400 Y27.9400 
G82 X-95.2500 Y49.5300 
G82 X-95.2500 Y53.3400 
G82 X-95.2500 Y57.1500 
G82 X-12.7000 Y33.0200 
G82 X-12.7000 Y6.3500 
G82 X-12.7000 Y13.9700 
G82 X-12.7000 Y25.4000 
G82 X-17.7800 Y33.0200 
G82 X-17.7800 Y6.3500 
G82 X-17.7800 Y13.9700 
G82 X-17.7800 Y25.4000 
M05
G00 Z25.4000 
M06 T01 (1.3970 )
G01 Z0.0000 F254.00 
M06 T01 (1.3970 )
G00 Z2.5400 
M03
G04 P3.000000
G82 X-7.6200 Y38.1000 Z-2.0000 F254.00 R2.5400 P1.000000
G82 X-7.6200 Y19.0500 
G82 X-12.7000 Y38.1000 
G82 X-12.7000 Y19.0500 
G82 X-17.7800 Y38.1000 
G82 X-17.7800 Y19.0500 
M05
G00 Z25.4000 
M06 T01 (1.6002 )
G01 Z0.0000 F254.00 
M06 T01 (1.6002 )
G00 Z2.5400 
M03
G04 P3.000000
G82 X-78.7400 Y78.7400 Z-2.0000 F254.00 R2.5400 P1.000000
G82 X-81.2800 Y53.3400 
G82 X-81.2800 Y58.4200 
G82 X-81.2800 Y63.5000 
G82 X-83.8200 Y78.7400 
T01 
G00 Z12.7000 
M05
M02
